;FLAVOR:UltiGCode
;TIME:4563
;MATERIAL:2281
;MATERIAL2:0
;NOZZLE_DIAMETER:0.4
;MINX:92.513
;MINY:92.513
;MINZ:0.27
;MAXX:130.487
;MAXY:130.487
;MAXZ:7.72
;Generated with Cura_SteamEngine 5.0.0
M82 ;absolute extrusion mode
G0 F3000 Y50 ;avoid prime blob
G92 E0
G92 E0
G10
;LAYER_COUNT:150
;LAYER:0
M107
G0 F4320 X97.985 Y98.177 Z0.27
G0 X93.265 Y106.216
;TYPE:SKIRT
G11
G1 F1800 X93.615 Y105.124 E0.12385
G1 X93.833 Y104.545 E0.19066
G1 X93.919 Y104.337 E0.21497
G1 X94.459 Y103.135 E0.35729
G1 X94.611 Y102.832 E0.3939
G1 X95.258 Y101.673 E0.53725
G1 X95.865 Y100.726 E0.65873
G1 X96.272 Y100.163 E0.73376
G1 X96.884 Y99.394 E0.83991
G1 X97.527 Y98.659 E0.94537
G1 X97.985 Y98.177 E1.01718
G1 X98.6 Y97.58 E1.10975
G1 X99.051 Y97.176 E1.17514
G1 X99.77 Y96.58 E1.27601
G1 X100.174 Y96.272 E1.33087
G1 X100.938 Y95.733 E1.43185
G1 X101.44 Y95.408 E1.49644
G1 X102.165 Y94.981 E1.58731
G1 X103.095 Y94.478 E1.7015
G1 X104.123 Y94.004 E1.82376
G1 X104.846 Y93.715 E1.90785
G1 X105.647 Y93.438 E1.99938
G1 X106.458 Y93.194 E2.09085
G1 X107.057 Y93.042 E2.15759
G1 X108.499 Y92.756 E2.31636
G1 X109.043 Y92.672 E2.37581
G1 X109.863 Y92.583 E2.46489
G1 X110.692 Y92.53 E2.5546
G1 X111.545 Y92.513 E2.64674
G1 X112.352 Y92.531 E2.73392
G1 X113.166 Y92.586 E2.82203
G1 X113.861 Y92.665 E2.89758
G1 X115.167 Y92.875 E3.04044
G1 X115.498 Y92.942 E3.07691
G1 X116.784 Y93.265 E3.22011
G1 X117.876 Y93.615 E3.34396
G1 X118.458 Y93.834 E3.41112
G1 X118.665 Y93.92 E3.43533
G1 X119.865 Y94.459 E3.5774
G1 X120.168 Y94.611 E3.61401
G1 X121.327 Y95.258 E3.75736
G1 X122.274 Y95.865 E3.87885
G1 X122.837 Y96.272 E3.95388
G1 X123.606 Y96.884 E4.06002
G1 X124.341 Y97.527 E4.16549
G1 X124.823 Y97.985 E4.2373
G1 X125.42 Y98.6 E4.32986
G1 X125.824 Y99.051 E4.39526
G1 X126.42 Y99.77 E4.49612
G1 X126.728 Y100.174 E4.55098
G1 X127.267 Y100.938 E4.65196
G1 X127.592 Y101.44 E4.71655
G1 X128.018 Y102.163 E4.80718
G1 X128.526 Y103.1 E4.92229
G1 X128.996 Y104.123 E5.04388
G1 X129.285 Y104.846 E5.12797
G1 X129.562 Y105.647 E5.2195
G1 X129.804 Y106.451 E5.31018
G1 X129.958 Y107.052 E5.37719
G1 X130.243 Y108.499 E5.53647
G1 X130.328 Y109.043 E5.59593
G1 X130.417 Y109.864 E5.68512
G1 X130.47 Y110.693 E5.77483
G1 X130.487 Y111.54 E5.86633
G1 X130.469 Y112.352 E5.95405
G1 X130.414 Y113.169 E6.04248
G1 X130.335 Y113.86 E6.1176
G1 X130.125 Y115.167 E6.26056
G1 X130.058 Y115.498 E6.29704
G1 X129.735 Y116.784 E6.44024
G1 X129.385 Y117.876 E6.56408
G1 X129.167 Y118.455 E6.6309
G1 X129.081 Y118.663 E6.65521
G1 X128.541 Y119.865 E6.79752
G1 X128.389 Y120.168 E6.83413
G1 X127.742 Y121.327 E6.97749
G1 X127.135 Y122.274 E7.09897
G1 X126.73 Y122.835 E7.1737
G1 X126.115 Y123.606 E7.28021
G1 X125.572 Y124.232 E7.36971
G1 X125.015 Y124.823 E7.45742
G1 X124.4 Y125.42 E7.54999
G1 X123.951 Y125.822 E7.61507
G1 X123.231 Y126.42 E7.71616
G1 X122.826 Y126.728 E7.77111
G1 X122.062 Y127.267 E7.87209
G1 X121.56 Y127.592 E7.93667
G1 X120.835 Y128.019 E8.02755
G1 X119.905 Y128.522 E8.14174
G1 X118.877 Y128.996 E8.26399
G1 X118.154 Y129.285 E8.34808
G1 X117.353 Y129.562 E8.43962
G1 X116.542 Y129.806 E8.53109
G1 X115.943 Y129.958 E8.59783
G1 X114.501 Y130.244 E8.7566
G1 X113.957 Y130.328 E8.81605
G1 X113.137 Y130.417 E8.90513
G1 X112.308 Y130.47 E8.99484
G1 X111.454 Y130.487 E9.08709
G1 X110.65 Y130.469 E9.17394
G1 X109.831 Y130.414 E9.2626
G1 X109.14 Y130.335 E9.33771
G1 X107.833 Y130.125 E9.48068
G1 X107.502 Y130.058 E9.51715
G1 X106.216 Y129.735 E9.66035
G1 X105.124 Y129.385 E9.7842
G1 X104.542 Y129.166 E9.85136
G1 X104.335 Y129.08 E9.87556
G1 X103.133 Y128.54 E10.01788
G1 X102.829 Y128.388 E10.05459
G1 X101.673 Y127.742 E10.19761
G1 X100.74 Y127.144 E10.31729
G1 X100.16 Y126.726 E10.3945
G1 X99.389 Y126.111 E10.50102
G1 X98.658 Y125.472 E10.60588
G1 X98.178 Y125.015 E10.67745
G1 X97.575 Y124.395 E10.77086
G1 X97.174 Y123.946 E10.83588
G1 X96.582 Y123.234 E10.93588
G1 X96.274 Y122.829 E10.99083
G1 X95.73 Y122.058 E11.09274
G1 X95.409 Y121.562 E11.15655
G1 X94.979 Y120.833 E11.24796
G1 X94.467 Y119.886 E11.36422
G1 X94.004 Y118.877 E11.48412
G1 X93.715 Y118.153 E11.56831
G1 X93.437 Y117.352 E11.65988
G1 X93.203 Y116.573 E11.74773
G1 X92.994 Y115.744 E11.84006
G1 X92.828 Y114.943 E11.92841
G1 X92.696 Y114.129 E12.01747
G1 X92.599 Y113.31 E12.10654
G1 X92.538 Y112.48 E12.19642
G1 X92.513 Y111.632 E12.28804
G1 X92.524 Y110.829 E12.37477
G1 X92.572 Y109.998 E12.46467
G1 X92.636 Y109.357 E12.53424
G1 X92.665 Y109.139 E12.558
G1 X92.875 Y107.833 E12.70086
G1 X92.942 Y107.502 E12.73733
G1 X93.265 Y106.216 E12.88053
G10
G0 F4320 X93.312 Y111.475
G11
G1 F1800 X93.329 Y110.697 E12.96457
G1 X93.381 Y109.917 E13.049
G1 X93.455 Y109.266 E13.11976
G1 X93.665 Y107.96 E13.26262
G1 X93.719 Y107.695 E13.29183
G1 X94.034 Y106.436 E13.43199
G1 X94.373 Y105.379 E13.55188
G1 X94.58 Y104.832 E13.61504
G1 X95.189 Y103.463 E13.77686
G1 X95.311 Y103.22 E13.80623
G1 X95.943 Y102.086 E13.94644
G1 X96.532 Y101.167 E14.06432
G1 X96.917 Y100.636 E14.13516
G1 X97.508 Y99.895 E14.23752
G1 X98.109 Y99.207 E14.33619
G1 X98.544 Y98.749 E14.4044
G1 X99.137 Y98.173 E14.49369
G1 X99.563 Y97.791 E14.55548
G1 X100.259 Y97.213 E14.65319
G1 X101.281 Y96.467 E14.78985
G1 X101.849 Y96.096 E14.86312
G1 X102.547 Y95.683 E14.95071
G1 X103.454 Y95.192 E15.0621
G1 X104.446 Y94.736 E15.18001
G1 X105.283 Y94.407 E15.27714
G1 X106.028 Y94.156 E15.36204
G1 X106.828 Y93.922 E15.45206
G1 X107.406 Y93.784 E15.51624
G1 X108.771 Y93.521 E15.66637
G1 X109.778 Y93.394 E15.77599
G1 X110.711 Y93.33 E15.87699
G1 X111.531 Y93.312 E15.96557
G1 X112.302 Y93.329 E16.04886
G1 X113.083 Y93.381 E16.13339
G1 X113.734 Y93.455 E16.20416
G1 X115.04 Y93.665 E16.34701
G1 X115.305 Y93.719 E16.37622
G1 X116.564 Y94.034 E16.51639
G1 X117.621 Y94.373 E16.63627
G1 X118.172 Y94.581 E16.69988
G1 X119.537 Y95.189 E16.86126
G1 X119.78 Y95.311 E16.89063
G1 X120.914 Y95.943 E17.03083
G1 X121.833 Y96.532 E17.14872
G1 X122.364 Y96.917 E17.21956
G1 X123.105 Y97.508 E17.32192
G1 X123.793 Y98.109 E17.42058
G1 X124.251 Y98.544 E17.4888
G1 X124.827 Y99.137 E17.57808
G1 X125.209 Y99.563 E17.63988
G1 X125.787 Y100.259 E17.73759
G1 X126.533 Y101.281 E17.87424
G1 X126.904 Y101.849 E17.94751
G1 X127.316 Y102.545 E18.03486
G1 X127.81 Y103.458 E18.14698
G1 X128.264 Y104.446 E18.26441
G1 X128.593 Y105.283 E18.36153
G1 X128.845 Y106.029 E18.44658
G1 X129.072 Y106.81 E18.53441
G1 X129.219 Y107.414 E18.60155
G1 X129.477 Y108.758 E18.74935
G1 X129.606 Y109.779 E18.8605
G1 X129.67 Y110.714 E18.96171
G1 X129.688 Y111.526 E19.04943
G1 X129.671 Y112.301 E19.13315
G1 X129.618 Y113.085 E19.21802
G1 X129.545 Y113.733 E19.28844
G1 X129.335 Y115.04 E19.43141
G1 X129.281 Y115.305 E19.46062
G1 X128.966 Y116.564 E19.60078
G1 X128.627 Y117.621 E19.72066
G1 X128.42 Y118.168 E19.78383
G1 X127.811 Y119.537 E19.94565
G1 X127.689 Y119.78 E19.97502
G1 X127.057 Y120.914 E20.11522
G1 X126.468 Y121.833 E20.23311
G1 X126.085 Y122.362 E20.30365
G1 X125.405 Y123.209 E20.42095
G1 X124.891 Y123.793 E20.50498
G1 X124.456 Y124.251 E20.57319
G1 X123.863 Y124.827 E20.66248
G1 X123.438 Y125.208 E20.72412
G1 X122.742 Y125.786 E20.82183
G1 X121.719 Y126.533 E20.95863
G1 X121.151 Y126.904 E21.0319
G1 X120.453 Y127.317 E21.1195
G1 X119.546 Y127.808 E21.23088
G1 X118.554 Y128.264 E21.3488
G1 X117.717 Y128.593 E21.44593
G1 X116.972 Y128.844 E21.53083
G1 X116.172 Y129.078 E21.62085
G1 X115.594 Y129.216 E21.68503
G1 X114.229 Y129.479 E21.83516
G1 X113.222 Y129.606 E21.94478
G1 X112.289 Y129.67 E22.04578
G1 X111.469 Y129.688 E22.13436
G1 X110.7 Y129.671 E22.21743
G1 X109.915 Y129.618 E22.3024
G1 X109.267 Y129.545 E22.37283
G1 X107.96 Y129.335 E22.5158
G1 X107.695 Y129.281 E22.54501
G1 X106.436 Y128.966 E22.68517
G1 X105.379 Y128.627 E22.80505
G1 X104.828 Y128.419 E22.86866
G1 X103.461 Y127.81 E23.03028
G1 X103.218 Y127.688 E23.05965
G1 X102.086 Y127.057 E23.19962
G1 X101.181 Y126.477 E23.31571
G1 X100.632 Y126.08 E23.38888
G1 X99.785 Y125.4 E23.50618
G1 X99.206 Y124.89 E23.58952
G1 X98.749 Y124.456 E23.65758
G1 X98.169 Y123.858 E23.74755
G1 X97.788 Y123.433 E23.8092
G1 X97.216 Y122.745 E23.90583
G1 X96.467 Y121.718 E24.04311
G1 X96.169 Y121.269 E24.10131
G1 X95.682 Y120.451 E24.20412
G1 X95.183 Y119.528 E24.31744
G1 X94.736 Y118.554 E24.43318
G1 X94.459 Y117.859 E24.51399
G1 X94.195 Y117.094 E24.60139
G1 X93.933 Y116.209 E24.70107
G1 X93.74 Y115.416 E24.78921
G1 X93.587 Y114.646 E24.874
G1 X93.467 Y113.866 E24.95923
G1 X93.382 Y113.08 E25.04461
G1 X93.33 Y112.287 E25.13044
G1 X93.312 Y111.475 E25.21816
G0 F4320 X92.913 Y111.622
G1 F1800 X92.93 Y110.672 E25.32077
G1 X92.984 Y109.876 E25.40694
G1 X93.06 Y109.202 E25.48019
G1 X93.27 Y107.896 E25.62305
G1 X93.331 Y107.598 E25.6559
G1 X93.65 Y106.326 E25.79753
G1 X93.994 Y105.251 E25.91943
G1 X94.206 Y104.688 E25.9844
G1 X94.824 Y103.299 E26.14859
G1 X94.961 Y103.026 E26.18158
G1 X95.6 Y101.879 E26.32339
G1 X96.198 Y100.947 E26.44298
G1 X96.595 Y100.399 E26.51606
G1 X97.196 Y99.645 E26.6202
G1 X97.818 Y98.933 E26.7223
G1 X98.265 Y98.463 E26.79235
G1 X98.869 Y97.876 E26.88332
G1 X99.307 Y97.484 E26.9468
G1 X100.014 Y96.897 E27.04604
G1 X101.05 Y96.141 E27.18455
G1 X101.644 Y95.752 E27.26124
G1 X102.356 Y95.332 E27.35052
G1 X103.274 Y94.835 E27.46326
G1 X104.285 Y94.37 E27.58344
G1 X104.993 Y94.087 E27.66579
G1 X105.776 Y93.816 E27.75527
G1 X106.572 Y93.577 E27.84503
G1 X107.153 Y93.43 E27.90976
G1 X108.576 Y93.149 E28.06641
G1 X109.089 Y93.07 E28.12247
G1 X109.891 Y92.983 E28.20959
G1 X110.702 Y92.93 E28.29737
G1 X111.538 Y92.913 E28.38767
G1 X112.327 Y92.93 E28.4729
G1 X113.124 Y92.984 E28.55918
G1 X113.798 Y93.06 E28.63243
G1 X115.104 Y93.27 E28.77529
G1 X115.402 Y93.331 E28.80814
G1 X116.674 Y93.65 E28.94977
G1 X117.749 Y93.994 E29.07167
G1 X118.315 Y94.208 E29.13702
G1 X118.501 Y94.285 E29.15876
G1 X119.701 Y94.824 E29.30084
G1 X119.974 Y94.961 E29.33383
G1 X121.121 Y95.6 E29.47563
G1 X122.053 Y96.198 E29.59522
G1 X122.601 Y96.595 E29.66831
G1 X123.355 Y97.196 E29.77244
G1 X124.067 Y97.818 E29.87455
G1 X124.537 Y98.265 E29.9446
G1 X125.124 Y98.869 E30.03556
G1 X125.516 Y99.307 E30.09904
G1 X126.103 Y100.014 E30.19829
G1 X126.859 Y101.05 E30.3368
G1 X127.248 Y101.644 E30.41348
G1 X127.667 Y102.354 E30.50252
G1 X128.168 Y103.279 E30.61613
G1 X128.63 Y104.285 E30.73569
G1 X128.913 Y104.993 E30.81803
G1 X129.184 Y105.776 E30.90752
G1 X129.461 Y106.713 E31.01305
G1 X129.612 Y107.339 E31.08259
G1 X129.872 Y108.696 E31.23181
G1 X130.003 Y109.734 E31.34481
G1 X130.063 Y110.548 E31.43296
G1 X130.087 Y111.379 E31.52274
G1 X130.07 Y112.327 E31.62514
G1 X130.016 Y113.127 E31.71174
G1 X129.94 Y113.796 E31.78446
G1 X129.73 Y115.103 E31.92742
G1 X129.669 Y115.402 E31.96038
G1 X129.35 Y116.674 E32.10201
G1 X129.006 Y117.749 E32.22391
G1 X128.794 Y118.312 E32.28888
G1 X128.176 Y119.701 E32.45307
G1 X128.039 Y119.974 E32.48606
G1 X127.4 Y121.121 E32.62786
G1 X126.802 Y122.053 E32.74746
G1 X126.407 Y122.599 E32.82024
G1 X125.803 Y123.356 E32.92483
G1 X125.182 Y124.067 E33.02678
G1 X124.735 Y124.537 E33.09683
G1 X124.131 Y125.124 E33.1878
G1 X123.694 Y125.515 E33.25113
G1 X122.986 Y126.103 E33.35052
G1 X121.95 Y126.859 E33.48903
G1 X121.356 Y127.248 E33.56572
G1 X120.644 Y127.668 E33.655
G1 X119.726 Y128.165 E33.76774
G1 X118.715 Y128.63 E33.88792
G1 X118.007 Y128.913 E33.97027
G1 X117.224 Y129.184 E34.05975
G1 X116.428 Y129.423 E34.14951
G1 X115.847 Y129.57 E34.21424
G1 X114.424 Y129.851 E34.37089
G1 X113.911 Y129.93 E34.42695
G1 X113.109 Y130.017 E34.51407
G1 X112.298 Y130.07 E34.60185
G1 X111.462 Y130.087 E34.69215
G1 X110.675 Y130.07 E34.77717
G1 X109.873 Y130.016 E34.86398
G1 X109.204 Y129.94 E34.9367
G1 X107.897 Y129.73 E35.07966
G1 X107.598 Y129.669 E35.11262
G1 X106.326 Y129.35 E35.25425
G1 X105.251 Y129.006 E35.37615
G1 X104.685 Y128.792 E35.4415
G1 X104.499 Y128.715 E35.46324
G1 X103.297 Y128.175 E35.60556
G1 X103.024 Y128.038 E35.63855
G1 X101.879 Y127.4 E35.78011
G1 X100.96 Y126.81 E35.89805
G1 X100.396 Y126.403 E35.97317
G1 X99.521 Y125.701 E36.09432
G1 X98.932 Y125.181 E36.17918
G1 X98.464 Y124.735 E36.249
G1 X97.872 Y124.127 E36.34065
G1 X97.481 Y123.69 E36.40398
G1 X96.899 Y122.989 E36.50238
G1 X96.14 Y121.95 E36.64134
G1 X95.753 Y121.357 E36.71782
G1 X95.33 Y120.642 E36.80754
G1 X94.825 Y119.707 E36.92231
G1 X94.37 Y118.715 E37.04017
G1 X94.087 Y118.006 E37.12262
G1 X93.816 Y117.223 E37.21211
G1 X93.587 Y116.46 E37.29814
G1 X93.382 Y115.648 E37.38859
G1 X93.22 Y114.864 E37.47505
G1 X93.091 Y114.066 E37.56235
G1 X92.997 Y113.265 E37.64945
G1 X92.937 Y112.453 E37.73739
G1 X92.913 Y111.622 E37.82717
G10
;MESH:66stamp_fillet.STL
G0 F4320 X95.811 Y111.639
G0 X96.937 Y111.643
G11
G0 X96.71 Y111.429
;TYPE:WALL-OUTER
G1 F1800 X96.72 Y112.085 E37.89803
G1 X96.758 Y112.71 E37.96566
G1 X96.828 Y113.368 E38.03712
G1 X96.923 Y113.996 E38.10572
G1 X97.042 Y114.616 E38.1739
G1 X97.193 Y115.254 E38.24471
G1 X97.376 Y115.892 E38.31639
G1 X97.573 Y116.48 E38.38336
G1 X97.809 Y117.096 E38.4546
G1 X98.067 Y117.69 E38.52455
G1 X98.35 Y118.27 E38.59425
G1 X98.647 Y118.821 E38.66185
G1 X98.954 Y119.34 E38.72697
G1 X99.233 Y119.766 E38.78197
G1 X99.616 Y120.309 E38.85373
G1 X99.943 Y120.732 E38.91148
G1 X100.346 Y121.217 E38.97958
G1 X100.711 Y121.619 E39.03822
G1 X101.136 Y122.055 E39.10398
G1 X101.546 Y122.441 E39.1648
G1 X101.995 Y122.834 E39.22924
G1 X102.438 Y123.189 E39.29055
G1 X102.967 Y123.58 E39.36159
G1 X103.482 Y123.927 E39.42866
G1 X104.059 Y124.282 E39.50183
G1 X104.593 Y124.579 E39.56782
G1 X105.215 Y124.888 E39.64283
G1 X105.75 Y125.126 E39.70607
G1 X106.373 Y125.374 E39.77849
G1 X106.972 Y125.581 E39.84693
G1 X107.629 Y125.775 E39.92092
G1 X108.213 Y125.92 E39.9859
G1 X108.862 Y126.053 E40.05745
G1 X109.498 Y126.154 E40.127
G1 X110.154 Y126.229 E40.19831
G1 X110.791 Y126.274 E40.26728
G1 X111.429 Y126.291 E40.33621
G1 X112.08 Y126.28 E40.40652
G1 X112.715 Y126.241 E40.47523
G1 X113.362 Y126.173 E40.54549
G1 X114.007 Y126.076 E40.61594
G1 X114.57 Y125.969 E40.67783
G1 X115.284 Y125.799 E40.7571
G1 X115.862 Y125.634 E40.82202
G1 X116.492 Y125.423 E40.89377
G1 X117.094 Y125.192 E40.96341
G1 X117.695 Y124.931 E41.03417
G1 X118.268 Y124.651 E41.10305
G1 X118.815 Y124.356 E41.17017
G1 X119.351 Y124.036 E41.23759
G1 X119.821 Y123.728 E41.29828
G1 X120.308 Y123.383 E41.36273
G1 X120.737 Y123.05 E41.42139
G1 X121.214 Y122.655 E41.48827
G1 X121.619 Y122.288 E41.5473
G1 X122.059 Y121.859 E41.61367
G1 X122.444 Y121.451 E41.67425
G1 X122.836 Y121.002 E41.73863
G1 X123.188 Y120.564 E41.79931
G1 X123.572 Y120.047 E41.86887
G1 X123.941 Y119.499 E41.94022
G1 X124.273 Y118.957 E42.00886
G1 X124.575 Y118.412 E42.07615
G1 X124.885 Y117.79 E42.15121
G1 X125.129 Y117.242 E42.216
G1 X125.376 Y116.621 E42.28817
G1 X125.586 Y116.013 E42.35764
G1 X125.772 Y115.38 E42.4289
G1 X125.92 Y114.784 E42.49522
G1 X126.053 Y114.14 E42.56624
G1 X126.155 Y113.495 E42.63677
G1 X126.229 Y112.851 E42.70678
G1 X126.274 Y112.206 E42.77661
G1 X126.291 Y111.571 E42.84521
G1 X126.291 Y111.569 E42.84543
G1 X126.28 Y110.916 E42.91596
G1 X126.241 Y110.284 E42.98435
G1 X126.174 Y109.64 E43.05427
G1 X126.075 Y108.987 E43.1256
G1 X125.961 Y108.398 E43.1904
G1 X125.804 Y107.736 E43.26388
G1 X125.628 Y107.119 E43.33317
G1 X125.422 Y106.505 E43.40311
G1 X125.193 Y105.91 E43.47197
G1 X124.935 Y105.315 E43.54201
G1 X124.646 Y104.722 E43.61326
G1 X124.36 Y104.193 E43.6782
G1 X124.037 Y103.648 E43.74662
G1 X123.732 Y103.182 E43.80677
G1 X123.378 Y102.684 E43.87276
G1 X123.06 Y102.272 E43.92897
G1 X122.655 Y101.784 E43.99746
G1 X122.287 Y101.379 E44.05656
G1 X121.864 Y100.945 E44.12201
G1 X121.499 Y100.601 E44.17618
