;FLAVOR:UltiGCode
;TIME:4551
;MATERIAL:2281
;MATERIAL2:0
;NOZZLE_DIAMETER:0.4
;MINX:92.513
;MINY:92.513
;MINZ:0.27
;MAXX:130.487
;MAXY:130.487
;MAXZ:7.72
;Generated with Cura_SteamEngine 5.0.0
M82 ;absolute extrusion mode
G0 F3000 Y50 ;avoid prime blob
G92 E0
G92 E0
G10
;LAYER_COUNT:150
;LAYER:0
M107
G0 F4320 X97.985 Y98.176 Z0.27
G0 X93.505 Y105.458
;TYPE:SKIRT
G11
G1 F1800 X93.617 Y105.134 E0.03702
G1 X94.138 Y103.823 E0.18938
G1 X94.587 Y102.871 E0.30306
G1 X95.072 Y101.977 E0.41291
G1 X95.504 Y101.27 E0.50239
G1 X95.955 Y100.596 E0.58997
G1 X96.408 Y99.983 E0.67229
G1 X96.967 Y99.295 E0.76803
G1 X97.528 Y98.657 E0.85978
G1 X97.985 Y98.176 E0.93144
G1 X98.626 Y97.556 E1.02775
G1 X99.307 Y96.948 E1.12635
G1 X100.048 Y96.365 E1.22818
G1 X100.939 Y95.732 E1.34622
G1 X101.439 Y95.409 E1.4105
G1 X102.185 Y94.968 E1.5041
G1 X103.078 Y94.484 E1.6138
G1 X104.125 Y94.003 E1.73823
G1 X104.848 Y93.714 E1.82232
G1 X105.641 Y93.438 E1.91301
G1 X106.659 Y93.142 E2.0275
G1 X107.249 Y93 E2.09304
G1 X108.62 Y92.736 E2.24383
G1 X109.704 Y92.598 E2.36185
G1 X110.525 Y92.538 E2.45075
G1 X111.372 Y92.513 E2.54227
G1 X112.206 Y92.53 E2.63236
G1 X113.532 Y92.625 E2.77594
G1 X114.659 Y92.777 E2.89875
G1 X115.448 Y92.927 E2.98549
G1 X116.123 Y93.086 E3.06039
G1 X117.442 Y93.471 E3.20878
G1 X117.999 Y93.659 E3.27227
G1 X118.794 Y93.971 E3.36451
G1 X119.573 Y94.315 E3.45648
G1 X120.275 Y94.662 E3.54105
G1 X121.023 Y95.074 E3.63328
G1 X121.719 Y95.498 E3.7213
G1 X122.434 Y95.976 E3.81418
G1 X123.006 Y96.4 E3.89108
G1 X123.705 Y96.968 E3.98835
G1 X124.343 Y97.529 E4.08011
G1 X124.822 Y97.985 E4.15153
G1 X125.423 Y98.603 E4.24463
G1 X125.994 Y99.238 E4.33686
G1 X126.615 Y100.021 E4.44479
G1 X127.186 Y100.819 E4.55077
G1 X127.593 Y101.442 E4.63114
G1 X128.019 Y102.165 E4.72177
G1 X128.527 Y103.102 E4.83688
G1 X128.997 Y104.125 E4.95847
G1 X129.286 Y104.848 E5.04256
G1 X129.613 Y105.803 E5.15158
G1 X129.848 Y106.616 E5.24298
G1 X130.004 Y107.269 E5.31548
G1 X130.259 Y108.591 E5.46089
G1 X130.402 Y109.705 E5.58219
G1 X130.462 Y110.524 E5.67088
G1 X130.487 Y111.372 E5.7625
G1 X130.479 Y111.996 E5.8299
G1 X130.386 Y113.404 E5.9823
G1 X130.32 Y114.026 E6.04985
G1 X130.213 Y114.698 E6.12334
G1 X130.011 Y115.682 E6.23183
G1 X129.837 Y116.382 E6.30973
G1 X129.528 Y117.45 E6.4298
G1 X129.224 Y118.307 E6.52801
G1 X128.599 Y119.74 E6.69685
G1 X128.455 Y120.034 E6.73221
G1 X127.825 Y121.192 E6.87458
G1 X127.265 Y122.068 E6.98687
G1 X126.516 Y123.116 E7.12599
G1 X125.934 Y123.832 E7.22564
G1 X124.96 Y124.885 E7.38056
G1 X124.604 Y125.235 E7.43447
G1 X123.701 Y126.045 E7.56548
G1 X122.975 Y126.618 E7.66537
G1 X122.181 Y127.186 E7.77081
G1 X121.559 Y127.592 E7.85103
G1 X120.816 Y128.031 E7.94423
G1 X119.933 Y128.51 E8.05272
G1 X118.874 Y128.998 E8.17865
G1 X118.152 Y129.287 E8.26264
G1 X117.357 Y129.563 E8.35353
G1 X116.341 Y129.858 E8.46779
G1 X115.748 Y130.002 E8.5337
G1 X114.38 Y130.264 E8.68413
G1 X113.296 Y130.402 E8.80214
G1 X112.475 Y130.462 E8.89105
G1 X111.628 Y130.487 E8.98256
G1 X111.004 Y130.479 E9.04996
G1 X110.783 Y130.469 E9.07385
G1 X109.47 Y130.373 E9.21604
G1 X109.135 Y130.335 E9.25245
G1 X107.787 Y130.118 E9.39991
G1 X106.875 Y129.913 E9.50086
G1 X105.455 Y129.494 E9.66076
G1 X105.131 Y129.382 E9.69778
G1 X103.814 Y128.859 E9.85082
G1 X102.881 Y128.419 E9.96223
G1 X102.135 Y128.018 E10.0537
G1 X101.418 Y127.59 E10.14388
G1 X100.724 Y127.135 E10.23351
G1 X100.145 Y126.717 E10.31063
G1 X99.411 Y126.13 E10.41213
G1 X98.763 Y125.569 E10.5047
G1 X98.288 Y125.125 E10.57492
G1 X97.683 Y124.511 E10.66802
G1 X97.005 Y123.761 E10.77721
G1 X96.378 Y122.969 E10.88631
G1 X95.813 Y122.179 E10.9912
G1 X95.408 Y121.56 E11.07109
G1 X94.968 Y120.816 E11.16444
G1 X94.48 Y119.915 E11.27511
G1 X94.002 Y118.874 E11.39882
G1 X93.713 Y118.151 E11.48291
G1 X93.438 Y117.359 E11.57346
G1 X93.142 Y116.341 E11.68795
G1 X93 Y115.751 E11.75349
G1 X92.736 Y114.38 E11.90428
G1 X92.599 Y113.3 E12.02186
G1 X92.539 Y112.487 E12.1099
G1 X92.513 Y111.622 E12.20336
G1 X92.521 Y111.004 E12.27011
G1 X92.531 Y110.783 E12.294
G1 X92.627 Y109.47 E12.43619
G1 X92.665 Y109.135 E12.4726
G1 X92.882 Y107.787 E12.62006
G1 X93.087 Y106.875 E12.72101
G1 X93.505 Y105.458 E12.88057
G10
G0 F4320 X93.313 Y111.466
G11
G1 F1800 X93.329 Y110.842 E12.94798
G1 X93.425 Y109.529 E13.09016
G1 X93.456 Y109.26 E13.11941
G1 X93.667 Y107.937 E13.2641
G1 X93.864 Y107.064 E13.36075
G1 X94.271 Y105.687 E13.51583
G1 X94.361 Y105.428 E13.54544
G1 X94.871 Y104.144 E13.69465
G1 X95.306 Y103.222 E13.80475
G1 X95.757 Y102.391 E13.90687
G1 X96.171 Y101.712 E13.99275
G1 X96.602 Y101.067 E14.07653
G1 X97.031 Y100.485 E14.15462
G1 X97.57 Y99.821 E14.24699
G1 X98.111 Y99.205 E14.33553
G1 X98.544 Y98.748 E14.40352
G1 X99.159 Y98.153 E14.49594
G1 X99.84 Y97.545 E14.59453
G1 X100.535 Y97 E14.68992
G1 X101.379 Y96.401 E14.80169
G1 X101.848 Y96.096 E14.86212
G1 X102.567 Y95.67 E14.95237
G1 X103.436 Y95.2 E15.05907
G1 X104.448 Y94.735 E15.17935
G1 X105.142 Y94.458 E15.26006
G1 X105.9 Y94.195 E15.34671
G1 X106.878 Y93.911 E15.4567
G1 X107.402 Y93.785 E15.5149
G1 X108.743 Y93.526 E15.6624
G1 X109.794 Y93.393 E15.77682
G1 X110.58 Y93.336 E15.86193
G1 X111.53 Y93.312 E15.96456
G1 X112.15 Y93.328 E16.03154
G1 X113.451 Y93.421 E16.17241
G1 X114.538 Y93.567 E16.29086
G1 X115.295 Y93.712 E16.3741
G1 X115.935 Y93.864 E16.44515
G1 X117.323 Y94.272 E16.60139
G1 X118.343 Y94.65 E16.71887
G1 X119.222 Y95.034 E16.82247
G1 X119.893 Y95.365 E16.90327
G1 X120.609 Y95.758 E16.99148
G1 X121.278 Y96.165 E17.07606
G1 X121.962 Y96.621 E17.16484
G1 X122.503 Y97.022 E17.23757
G1 X123.179 Y97.571 E17.33162
G1 X123.794 Y98.111 E17.42001
G1 X124.251 Y98.544 E17.488
G1 X124.83 Y99.14 E17.57774
G1 X125.382 Y99.753 E17.66683
G1 X125.982 Y100.51 E17.77116
G1 X126.599 Y101.379 E17.88626
G1 X126.905 Y101.851 E17.94701
G1 X127.317 Y102.547 E18.03436
G1 X127.811 Y103.46 E18.14647
G1 X128.265 Y104.448 E18.2639
G1 X128.593 Y105.283 E18.36079
G1 X128.845 Y106.03 E18.44593
G1 X129.072 Y106.806 E18.53325
G1 X129.219 Y107.422 E18.60165
G1 X129.469 Y108.717 E18.74409
G1 X129.607 Y109.795 E18.86147
G1 X129.664 Y110.579 E18.94636
G1 X129.687 Y111.393 E19.03431
G1 X129.679 Y111.982 E19.09793
G1 X129.588 Y113.348 E19.24578
G1 X129.529 Y113.906 E19.30638
G1 X129.429 Y114.54 E19.3757
G1 X129.234 Y115.492 E19.48065
G1 X129.069 Y116.161 E19.55507
G1 X128.767 Y117.203 E19.67223
G1 X128.474 Y118.027 E19.76669
G1 X127.867 Y119.417 E19.9305
G1 X127.752 Y119.652 E19.95875
G1 X127.136 Y120.785 E20.09803
G1 X126.597 Y121.628 E20.20609
G1 X125.881 Y122.629 E20.33901
G1 X125.323 Y123.315 E20.43451
G1 X124.374 Y124.339 E20.5853
G1 X124.07 Y124.639 E20.63142
G1 X123.167 Y125.449 E20.76243
G1 X122.487 Y125.984 E20.85588
G1 X121.621 Y126.599 E20.97059
G1 X121.149 Y126.905 E21.03134
G1 X120.434 Y127.328 E21.12106
G1 X119.573 Y127.795 E21.22685
G1 X118.551 Y128.266 E21.34838
G1 X117.718 Y128.594 E21.44507
G1 X116.94 Y128.856 E21.53373
G1 X116.01 Y129.118 E21.63808
G1 X115.595 Y129.216 E21.68413
G1 X114.257 Y129.474 E21.8313
G1 X113.206 Y129.607 E21.94571
G1 X112.42 Y129.664 E22.03082
G1 X111.608 Y129.687 E22.11855
G1 X111.018 Y129.679 E22.18228
G1 X109.529 Y129.575 E22.34348
G1 X109.26 Y129.544 E22.37273
G1 X107.937 Y129.333 E22.51742
G1 X107.064 Y129.136 E22.61407
G1 X105.684 Y128.728 E22.76949
G1 X105.425 Y128.638 E22.7991
G1 X104.136 Y128.126 E22.9489
G1 X103.232 Y127.699 E23.05687
G1 X102.517 Y127.315 E23.14452
G1 X101.831 Y126.905 E23.23083
G1 X101.041 Y126.381 E23.33322
G1 X100.496 Y125.978 E23.40642
G1 X99.821 Y125.43 E23.50032
G1 X99.195 Y124.881 E23.59024
G1 X98.746 Y124.454 E23.65716
G1 X98.168 Y123.859 E23.74675
G1 X97.617 Y123.246 E23.83577
G1 X97.011 Y122.48 E23.94126
G1 X96.4 Y121.62 E24.05519
G1 X96.095 Y121.15 E24.1157
G1 X95.671 Y120.434 E24.20557
G1 X95.196 Y119.558 E24.31319
G1 X94.734 Y118.55 E24.43295
G1 X94.407 Y117.719 E24.52939
G1 X94.144 Y116.94 E24.61819
G1 X93.88 Y116.001 E24.72354
G1 X93.785 Y115.598 E24.76825
G1 X93.526 Y114.257 E24.91576
G1 X93.393 Y113.209 E25.02985
G1 X93.33 Y112.29 E25.12933
G1 X93.313 Y111.466 E25.21834
G0 F4320 X92.913 Y111.459
G1 F1800 X92.93 Y110.812 E25.28824
G1 X93.026 Y109.499 E25.43043
G1 X93.061 Y109.198 E25.46315
G1 X93.274 Y107.862 E25.60926
G1 X93.475 Y106.969 E25.70812
G1 X93.888 Y105.573 E25.86535
G1 X93.989 Y105.281 E25.89872
G1 X94.504 Y103.983 E26.04953
G1 X94.946 Y103.047 E26.16133
G1 X95.331 Y102.33 E26.24922
G1 X95.757 Y101.618 E26.33883
G1 X96.187 Y100.963 E26.42345
G1 X96.611 Y100.375 E26.50174
G1 X97.179 Y99.664 E26.60002
G1 X97.819 Y98.931 E26.70512
G1 X98.265 Y98.462 E26.77501
G1 X98.892 Y97.855 E26.86926
G1 X99.573 Y97.247 E26.96786
G1 X100.291 Y96.683 E27.06647
G1 X101.159 Y96.066 E27.18148
G1 X101.644 Y95.752 E27.24388
G1 X102.376 Y95.319 E27.33573
G1 X103.257 Y94.842 E27.44393
G1 X104.287 Y94.369 E27.56634
G1 X104.995 Y94.086 E27.64869
G1 X105.771 Y93.816 E27.73742
G1 X106.769 Y93.527 E27.84963
G1 X107.325 Y93.393 E27.9114
G1 X108.681 Y93.131 E28.06056
G1 X109.749 Y92.996 E28.17682
G1 X110.553 Y92.937 E28.26389
G1 X111.382 Y92.913 E28.35346
G1 X112.178 Y92.929 E28.43944
G1 X113.492 Y93.023 E28.58172
G1 X114.598 Y93.172 E28.70224
G1 X115.372 Y93.32 E28.78735
G1 X116.029 Y93.475 E28.86025
G1 X117.329 Y93.855 E29.00653
G1 X117.855 Y94.033 E29.0665
G1 X118.634 Y94.337 E29.15681
G1 X119.397 Y94.675 E29.24694
G1 X120.084 Y95.014 E29.32968
G1 X120.816 Y95.416 E29.41987
G1 X121.498 Y95.832 E29.50615
G1 X122.198 Y96.298 E29.59697
G1 X122.755 Y96.711 E29.67186
G1 X123.442 Y97.269 E29.76744
G1 X124.069 Y97.82 E29.85759
G1 X124.536 Y98.265 E29.92726
G1 X125.126 Y98.871 E30.0186
G1 X125.688 Y99.496 E30.10938
G1 X126.298 Y100.266 E30.21547
G1 X126.934 Y101.16 E30.33396
G1 X127.249 Y101.646 E30.39651
G1 X127.668 Y102.356 E30.48555
G1 X128.169 Y103.281 E30.59916
G1 X128.631 Y104.287 E30.71872
G1 X128.914 Y104.995 E30.80106
G1 X129.184 Y105.775 E30.89021
G1 X129.416 Y106.549 E30.97747
G1 X129.574 Y107.175 E31.0472
G1 X129.843 Y108.532 E31.19661
G1 X129.929 Y109.086 E31.25716
G1 X130.019 Y109.908 E31.34647
G1 X130.07 Y110.706 E31.43283
G1 X130.087 Y111.537 E31.52259
G1 X130.071 Y112.177 E31.59173
G1 X129.977 Y113.492 E31.73412
G1 X129.851 Y114.447 E31.83815
G1 X129.654 Y115.447 E31.94823
G1 X129.491 Y116.129 E32.02396
G1 X129.147 Y117.327 E32.15857
G1 X128.849 Y118.167 E32.25483
G1 X128.233 Y119.579 E32.4212
G1 X128.104 Y119.843 E32.45294
G1 X127.48 Y120.988 E32.59377
G1 X126.931 Y121.848 E32.70396
G1 X126.198 Y122.872 E32.83997
G1 X125.629 Y123.574 E32.93756
G1 X124.667 Y124.612 E33.09041
G1 X124.337 Y124.937 E33.14043
G1 X123.434 Y125.747 E33.27144
G1 X122.731 Y126.301 E33.3681
G1 X121.84 Y126.934 E33.48614
G1 X121.354 Y127.249 E33.54869
G1 X120.625 Y127.679 E33.6401
G1 X119.753 Y128.153 E33.74729
G1 X118.712 Y128.632 E33.87105
G1 X118.005 Y128.915 E33.9533
G1 X117.228 Y129.184 E34.0421
G1 X116.231 Y129.473 E34.15421
G1 X115.672 Y129.609 E34.21634
G1 X114.319 Y129.869 E34.36514
G1 X113.251 Y130.004 E34.4814
G1 X112.447 Y130.063 E34.56846
G1 X111.618 Y130.087 E34.65803
G1 X111.011 Y130.079 E34.7236
G1 X109.499 Y129.974 E34.88729
G1 X109.198 Y129.939 E34.92001
G1 X107.862 Y129.726 E35.06612
G1 X106.969 Y129.525 E35.16498
G1 X105.569 Y129.111 E35.32265
G1 X105.278 Y129.01 E35.35592
G1 X103.975 Y128.493 E35.50732
G1 X103.057 Y128.059 E35.61698
G1 X102.326 Y127.666 E35.70662
G1 X101.499 Y127.168 E35.81087
G1 X100.805 Y126.704 E35.90104
G1 X100.244 Y126.289 E35.9764
G1 X99.558 Y125.731 E36.0719
G1 X98.921 Y125.172 E36.16343
G1 X98.46 Y124.733 E36.23218
G1 X97.872 Y124.127 E36.32338
G1 X97.311 Y123.503 E36.414
G1 X96.694 Y122.725 E36.52124
G1 X96.065 Y121.839 E36.63859
G1 X95.752 Y121.355 E36.70084
G1 X95.32 Y120.625 E36.79245
G1 X94.838 Y119.737 E36.90157
G1 X94.368 Y118.712 E37.02335
G1 X94.085 Y118.004 E37.1057
G1 X93.816 Y117.229 E37.1943
G1 X93.527 Y116.231 E37.30651
G1 X93.393 Y115.675 E37.36828
G1 X93.131 Y114.319 E37.51744
G1 X92.996 Y113.254 E37.63338
G1 X92.93 Y112.3 E37.73665
G1 X92.913 Y111.459 E37.8275
G10
;MESH:66stamp_fillet_V3.STL
G0 F4320 X95.812 Y111.476
G0 X96.938 Y111.48
G11
G0 X96.71 Y111.432
;TYPE:WALL-OUTER
G1 F1800 X96.72 Y112.08 E37.89749
G1 X96.759 Y112.711 E37.96577
G1 X96.826 Y113.353 E38.03548
G1 X96.925 Y114.014 E38.10767
G1 X97.032 Y114.571 E38.16892
G1 X97.198 Y115.274 E38.24694
G1 X97.379 Y115.908 E38.31814
G1 X97.568 Y116.468 E38.38197
G1 X97.806 Y117.091 E38.454
G1 X98.063 Y117.683 E38.5237
G1 X98.351 Y118.275 E38.5948
G1 X98.642 Y118.812 E38.66077
G1 X98.953 Y119.338 E38.72676
G1 X99.232 Y119.764 E38.78176
G1 X99.617 Y120.31 E38.85391
G1 X99.935 Y120.722 E38.91012
G1 X100.345 Y121.216 E38.97945
G1 X100.715 Y121.623 E39.03886
G1 X101.134 Y122.053 E39.1037
G1 X101.544 Y122.439 E39.16452
G1 X101.997 Y122.835 E39.2295
G1 X102.426 Y123.181 E39.28902
G1 X102.966 Y123.58 E39.36153
G1 X103.491 Y123.934 E39.42992
G1 X104.049 Y124.277 E39.50066
G1 X104.595 Y124.58 E39.5681
G1 X105.201 Y124.881 E39.64118
G1 X105.764 Y125.131 E39.7077
G1 X106.343 Y125.362 E39.77503
G1 X107.003 Y125.59 E39.85044
G1 X107.588 Y125.764 E39.91636
G1 X108.231 Y125.924 E39.98792
G1 X108.863 Y126.054 E40.05761
G1 X109.49 Y126.153 E40.12616
G1 X110.156 Y126.229 E40.19856
G1 X110.767 Y126.272 E40.26471
G1 X111.431 Y126.291 E40.33645
G1 X112.074 Y126.281 E40.4059
G1 X112.712 Y126.241 E40.47494
G1 X113.353 Y126.174 E40.54454
G1 X114.014 Y126.075 E40.61673
G1 X114.564 Y125.969 E40.67722
G1 X115.289 Y125.798 E40.75767
G1 X115.898 Y125.624 E40.82607
G1 X116.48 Y125.428 E40.8924
G1 X117.09 Y125.195 E40.96292
G1 X117.689 Y124.935 E41.03344
G1 X118.269 Y124.651 E41.10319
G1 X118.805 Y124.361 E41.16901
G1 X119.349 Y124.037 E41.23739
G1 X119.822 Y123.727 E41.29847
G1 X120.31 Y123.381 E41.36308
G1 X120.727 Y123.059 E41.41998
G1 X121.216 Y122.654 E41.48855
G1 X121.618 Y122.29 E41.54712
G1 X122.104 Y121.811 E41.62082
G1 X122.52 Y121.364 E41.68676
G1 X122.945 Y120.87 E41.75714
G1 X123.347 Y120.357 E41.82753
G1 X123.704 Y119.86 E41.89362
G1 X123.983 Y119.435 E41.94853
G1 X124.358 Y118.809 E42.02734
G1 X124.625 Y118.318 E42.0877
G1 X124.935 Y117.683 E42.16401
G1 X125.181 Y117.117 E42.23067
G1 X125.416 Y116.507 E42.30127
G1 X125.625 Y115.888 E42.37183
G1 X125.803 Y115.264 E42.44191
G1 X125.941 Y114.7 E42.50461
G1 X126.042 Y114.202 E42.55949
G1 X126.155 Y113.5 E42.63629
G1 X126.229 Y112.85 E42.70694
G1 X126.273 Y112.229 E42.77418
G1 X126.291 Y111.568 E42.84559
G1 X126.28 Y110.923 E42.91526
G1 X126.241 Y110.286 E42.98418
G1 X126.175 Y109.648 E43.05346
G1 X126.073 Y108.98 E43.12644
G1 X125.962 Y108.404 E43.18979
G1 X125.808 Y107.749 E43.26246
G1 X125.626 Y107.11 E43.33421
G1 X125.424 Y106.51 E43.40259
G1 X125.195 Y105.914 E43.47154
G1 X124.936 Y105.317 E43.54183
G1 X124.647 Y104.724 E43.61307
G1 X124.361 Y104.194 E43.67811
G1 X124.038 Y103.65 E43.74644
G1 X123.731 Y103.182 E43.80689
G1 X123.376 Y102.682 E43.87312
G1 X123.068 Y102.283 E43.92755
G1 X122.653 Y101.782 E43.99781
G1 X122.285 Y101.376 E44.05699
G1 X121.866 Y100.947 E44.12176
G1 X121.501 Y100.603 E44.17593
G1 X121.006 Y100.167 E44.24717
G1 X120.615 Y99.852 E44.30139
G1 X120.035 Y99.421 E44.37944
G1 X119.509 Y99.066 E44.44797
G1 X118.949 Y98.722 E44.51895
G1 X118.405 Y98.42 E44.58615
G1 X117.797 Y98.118 E44.65947
G1 X117.239 Y97.87 E44.72541
G1 X116.651 Y97.636 E44.79376
G1 X116.003 Y97.412 E44.86781
G1 X115.411 Y97.236 E44.93451
G1 X114.769 Y97.076 E45.00597
G1 X114.139 Y96.947 E45.07542
G1 X113.508 Y96.846 E45.14444
G1 X112.846 Y96.771 E45.21639
G1 X112.232 Y96.727 E45.28287
G1 X111.569 Y96.71 E45.3545
G1 X110.926 Y96.719 E45.42395
