;FLAVOR:UltiGCode
;TIME:7257
;MATERIAL:13956
;MATERIAL2:0
;NOZZLE_DIAMETER:0.4
;MINX:22.515
;MINY:66.015
;MINZ:0.27
;MAXX:200.485
;MAXY:156.985
;MAXZ:13.02
;Generated with Cura_SteamEngine 5.0.0
M82 ;absolute extrusion mode
G0 F3000 Y50 ;avoid prime blob
G92 E0
G92 E0
G10
;LAYER_COUNT:86
;LAYER:0
M107
G0 F4500 X24.872 Y66.381 Z0.27
G0 X22.515 Y70.635
;TYPE:SKIRT
G11
G1 F1800 X22.524 Y69.97 E0.07183
G1 X22.572 Y69.407 E0.13285
G1 X22.698 Y68.856 E0.1939
G1 X22.901 Y68.328 E0.25499
G1 X23.177 Y67.834 E0.3161
G1 X23.519 Y67.384 E0.37715
G1 X23.921 Y66.987 E0.43816
G1 X24.375 Y66.65 E0.49923
G1 X24.872 Y66.381 E0.56026
G1 X25.402 Y66.184 E0.62133
G1 X25.955 Y66.065 E0.68242
G1 X26.733 Y66.017 E0.7666
G1 X63.835 Y66.015 E4.77362
G1 X64.702 Y66.031 E4.86727
G1 X67.15 Y66.165 E5.13205
G1 X69.84 Y66.241 E5.42269
G1 X72.584 Y66.241 E5.71904
G1 X75.289 Y66.164 E6.0113
G1 X77.897 Y66.027 E6.29335
G1 X78.345 Y66.015 E6.34175
G1 X195.835 Y66.015 E19.03067
G1 X196.533 Y66.025 E19.10606
G1 X197.097 Y66.073 E19.1672
G1 X197.647 Y66.2 E19.22816
G1 X198.175 Y66.404 E19.28929
G1 X198.669 Y66.679 E19.35035
G1 X199.118 Y67.022 E19.41137
G1 X199.515 Y67.424 E19.47239
G1 X199.852 Y67.879 E19.53354
G1 X200.12 Y68.376 E19.59453
G1 X200.316 Y68.906 E19.65556
G1 X200.436 Y69.459 E19.71667
G1 X200.483 Y70.233 E19.80042
G1 X200.485 Y102.84 E23.32197
G1 X200.474 Y103.547 E23.39834
G1 X200.407 Y104.214 E23.47073
G1 X200.184 Y105.417 E23.60287
G1 X199.714 Y108.164 E23.90386
G1 X199.331 Y110.855 E24.19742
G1 X199.03 Y113.507 E24.48567
G1 X198.798 Y116.237 E24.78157
G1 X198.643 Y118.98 E25.07829
G1 X198.568 Y121.65 E25.36676
G1 X198.568 Y124.393 E25.66301
G1 X198.645 Y127.069 E25.95214
G1 X198.8 Y129.806 E26.24821
G1 X199.032 Y132.534 E26.54389
G1 X199.336 Y135.2 E26.83369
G1 X199.722 Y137.911 E27.12943
G1 X200.18 Y140.582 E27.42211
G1 X200.403 Y141.744 E27.54989
G1 X200.473 Y142.377 E27.61867
G1 X200.485 Y142.829 E27.66751
G1 X200.485 Y152.299 E28.69027
G1 X200.476 Y153.026 E28.76879
G1 X200.429 Y153.589 E28.8298
G1 X200.303 Y154.14 E28.89085
G1 X200.101 Y154.668 E28.9519
G1 X199.826 Y155.162 E29.01296
G1 X199.484 Y155.612 E29.07401
G1 X199.082 Y156.01 E29.1351
G1 X198.629 Y156.347 E29.19608
G1 X198.132 Y156.617 E29.25716
G1 X197.602 Y156.814 E29.31823
G1 X197.05 Y156.935 E29.37926
G1 X196.267 Y156.983 E29.46398
G1 X96.145 Y156.984 E40.27716
G1 X95.418 Y156.97 E40.35569
G1 X94.855 Y156.919 E40.41674
G1 X94.54 Y156.855 E40.45146
G1 X93.401 Y156.575 E40.57813
G1 X90.691 Y155.95 E40.8785
G1 X88.007 Y155.413 E41.17411
G1 X85.376 Y154.962 E41.46241
G1 X82.659 Y154.575 E41.7588
G1 X80.007 Y154.274 E42.04706
G1 X77.27 Y154.041 E42.34372
G1 X74.531 Y153.886 E42.64001
G1 X71.86 Y153.81 E42.92859
G1 X69.116 Y153.81 E43.22495
G1 X66.445 Y153.886 E43.51353
G1 X63.702 Y154.041 E43.81025
G1 X60.977 Y154.272 E44.1056
G1 X58.309 Y154.576 E44.39561
G1 X55.604 Y154.96 E44.69068
G1 X52.938 Y155.417 E44.98281
G1 X50.325 Y155.94 E45.27061
G1 X47.587 Y156.571 E45.57406
G1 X46.442 Y156.857 E45.70152
G1 X45.885 Y156.955 E45.7626
G1 X45.268 Y156.983 E45.82931
G1 X27.17 Y156.985 E47.78389
G1 X26.472 Y156.976 E47.85928
G1 X25.909 Y156.928 E47.92031
G1 X25.358 Y156.802 E47.98135
G1 X24.83 Y156.6 E48.04241
G1 X24.336 Y156.325 E48.10347
G1 X23.886 Y155.983 E48.16451
G1 X23.488 Y155.581 E48.2256
G1 X23.152 Y155.127 E48.2866
G1 X22.882 Y154.63 E48.34769
G1 X22.685 Y154.1 E48.40876
G1 X22.565 Y153.548 E48.46976
G1 X22.516 Y152.751 E48.556
G1 X22.515 Y88.165 E55.53129
G1 X22.553 Y85.464 E55.82303
G1 X22.515 Y81.723 E56.22708
G1 X22.515 Y70.635 E57.42458
G0 F4500 X22.915 Y70.64
G1 F1800 X22.924 Y69.975 E57.49641
G1 X22.972 Y69.441 E57.55431
G1 X23.098 Y68.92 E57.6122
G1 X23.3 Y68.423 E57.67014
G1 X23.573 Y67.962 E57.728
G1 X23.912 Y67.546 E57.78596
G1 X24.309 Y67.186 E57.84384
G1 X24.756 Y66.888 E57.90186
G1 X25.241 Y66.66 E57.95974
G1 X25.755 Y66.507 E58.01766
G1 X26.423 Y66.425 E58.09035
G1 X26.845 Y66.415 E58.13593
G1 X63.829 Y66.415 E62.13021
G1 X64.681 Y66.43 E62.22224
G1 X67.118 Y66.563 E62.48582
G1 X69.865 Y66.641 E62.78262
G1 X72.559 Y66.641 E63.07357
G1 X75.323 Y66.563 E63.3722
G1 X77.909 Y66.427 E63.65188
G1 X78.345 Y66.415 E63.69898
G1 X195.83 Y66.415 E76.38736
G1 X196.528 Y66.425 E76.46275
G1 X197.062 Y66.473 E76.52066
G1 X197.583 Y66.599 E76.57855
G1 X198.08 Y66.802 E76.63653
G1 X198.541 Y67.076 E76.69445
G1 X198.956 Y67.415 E76.75232
G1 X199.316 Y67.813 E76.81028
G1 X199.613 Y68.259 E76.86815
G1 X199.841 Y68.745 E76.92613
G1 X199.993 Y69.259 E76.98402
G1 X200.075 Y69.924 E77.05638
G1 X200.085 Y70.345 E77.10186
G1 X200.085 Y102.834 E80.61067
G1 X200.074 Y103.541 E80.68704
G1 X200.014 Y104.141 E80.75216
G1 X199.781 Y105.398 E80.89023
G1 X199.323 Y108.071 E81.18312
G1 X198.936 Y110.79 E81.47973
G1 X198.628 Y113.499 E81.77419
G1 X198.398 Y116.215 E82.06857
G1 X198.245 Y118.912 E82.36031
G1 X198.168 Y121.675 E82.65883
G1 X198.168 Y124.37 E82.94989
G1 X198.247 Y127.137 E83.24885
G1 X198.4 Y129.829 E83.54005
G1 X198.631 Y132.546 E83.83455
G1 X198.94 Y135.261 E84.12966
G1 X199.326 Y137.969 E84.42508
G1 X199.789 Y140.666 E84.72062
G1 X200.01 Y141.819 E84.84741
G1 X200.073 Y142.389 E84.90934
G1 X200.085 Y142.829 E84.95688
G1 X200.085 Y152.294 E85.9791
G1 X200.076 Y153.021 E86.05762
G1 X200.029 Y153.555 E86.11552
G1 X199.904 Y154.076 E86.17338
G1 X199.702 Y154.573 E86.23132
G1 X199.429 Y155.035 E86.28928
G1 X199.091 Y155.451 E86.34717
G1 X198.694 Y155.812 E86.40512
G1 X198.248 Y156.11 E86.46305
G1 X197.763 Y156.338 E86.52093
G1 X197.249 Y156.492 E86.57888
G1 X196.577 Y156.575 E86.65201
G1 X196.155 Y156.585 E86.6976
G1 X96.153 Y156.584 E97.49781
G1 X95.426 Y156.57 E97.57634
G1 X94.636 Y156.467 E97.66239
G1 X93.456 Y156.177 E97.79362
G1 X90.794 Y155.564 E98.08864
G1 X88.075 Y155.019 E98.38813
G1 X85.434 Y154.566 E98.67752
G1 X82.723 Y154.18 E98.97327
G1 X80.014 Y153.873 E99.26771
G1 X77.293 Y153.641 E99.56264
G1 X74.6 Y153.488 E99.85396
G1 X71.835 Y153.41 E100.1527
G1 X69.141 Y153.41 E100.44365
G1 X66.376 Y153.488 E100.74239
G1 X63.68 Y153.641 E101.03402
G1 X60.968 Y153.871 E101.32797
G1 X58.244 Y154.181 E101.62406
G1 X55.546 Y154.565 E101.91838
G1 X52.87 Y155.023 E102.21159
G1 X50.219 Y155.554 E102.50359
G1 X47.511 Y156.178 E102.80372
G1 X46.345 Y156.469 E102.93351
G1 X45.576 Y156.575 E103.01734
G1 X45.155 Y156.585 E103.06282
G1 X27.176 Y156.585 E105.00456
G1 X26.478 Y156.576 E105.07995
G1 X25.943 Y156.529 E105.13795
G1 X25.422 Y156.403 E105.19584
G1 X24.925 Y156.201 E105.25378
G1 X24.464 Y155.928 E105.31164
G1 X24.048 Y155.589 E105.3696
G1 X23.687 Y155.193 E105.42747
G1 X23.389 Y154.747 E105.4854
G1 X23.161 Y154.261 E105.54338
G1 X23.008 Y153.747 E105.6013
G1 X22.925 Y153.073 E105.67464
G1 X22.915 Y152.643 E105.72109
G1 X22.915 Y88.171 E112.68407
G1 X22.953 Y85.466 E112.97624
G1 X22.915 Y81.719 E113.38093
G1 X22.915 Y70.64 E114.57747
G0 F4500 X23.315 Y70.646
G1 F1800 X23.324 Y69.981 E114.64929
G1 X23.371 Y69.477 E114.70396
G1 X23.698 Y68.524 E114.81277
G1 X23.969 Y68.097 E114.86739
G1 X24.695 Y67.398 E114.97624
G1 X25.603 Y66.959 E115.08516
G1 X26.434 Y66.825 E115.17607
G1 X26.845 Y66.815 E115.22047
G1 X63.823 Y66.815 E119.21409
G1 X64.659 Y66.83 E119.3044
G1 X67.084 Y66.963 E119.56669
G1 X69.854 Y67.041 E119.86597
G1 X72.57 Y67.041 E120.1593
G1 X75.315 Y66.963 E120.45588
G1 X77.922 Y66.827 E120.73782
G1 X78.345 Y66.815 E120.78352
G1 X195.824 Y66.815 E133.47125
G1 X196.522 Y66.825 E133.54664
G1 X197.025 Y66.872 E133.6012
G1 X197.515 Y66.998 E133.65584
G1 X198.405 Y67.472 E133.76475
G1 X198.783 Y67.807 E133.81929
G1 X199.358 Y68.635 E133.92817
G1 X199.648 Y69.6 E134.03699
G1 X199.684 Y70.255 E134.10784
G1 X199.685 Y102.828 E137.62572
G1 X199.674 Y103.535 E137.70209
G1 X199.62 Y104.068 E137.75995
G1 X199.395 Y105.282 E137.89329
G1 X198.926 Y108.024 E138.19373
G1 X198.542 Y110.72 E138.48783
G1 X198.231 Y113.456 E138.78522
G1 X197.999 Y116.194 E139.08199
G1 X197.845 Y118.913 E139.37611
G1 X197.768 Y121.663 E139.67323
G1 X197.768 Y124.381 E139.96677
G1 X197.847 Y127.137 E140.26454
G1 X198.003 Y129.882 E140.56148
G1 X198.233 Y132.591 E140.8551
G1 X198.541 Y135.296 E141.14913
G1 X198.929 Y138.017 E141.44597
G1 X199.389 Y140.702 E141.74018
G1 X199.618 Y141.895 E141.87137
G1 X199.684 Y142.732 E141.96205
G1 X199.685 Y152.289 E142.99421
G1 X199.676 Y153.016 E143.07273
G1 X199.63 Y153.519 E143.12728
G1 X199.505 Y154.009 E143.18189
G1 X199.033 Y154.9 E143.29079
G1 X198.308 Y155.6 E143.39963
G1 X197.872 Y155.856 E143.45424
G1 X196.907 Y156.147 E143.56309
G1 X196.245 Y156.184 E143.6347
G1 X96.16 Y156.184 E154.44388
G1 X95.433 Y156.17 E154.52241
G1 X94.731 Y156.078 E154.59887
G1 X93.561 Y155.79 E154.72901
G1 X90.891 Y155.175 E155.02492
G1 X88.156 Y154.628 E155.32615
G1 X85.482 Y154.169 E155.61916
G1 X82.793 Y153.786 E155.9125
G1 X80.025 Y153.472 E156.21337
G1 X77.346 Y153.244 E156.50374
G1 X74.599 Y153.088 E156.8009
G1 X71.846 Y153.01 E157.09834
G1 X69.13 Y153.01 E157.39167
G1 X66.377 Y153.088 E157.68911
G1 X63.659 Y153.242 E157.98313
G1 X60.891 Y153.477 E158.28315
G1 X58.209 Y153.782 E158.57467
G1 X55.499 Y154.167 E158.87029
G1 X52.796 Y154.631 E159.16648
G1 X50.116 Y155.167 E159.46165
G1 X47.439 Y155.784 E159.75835
G1 X46.248 Y156.081 E159.89092
G1 X45.564 Y156.175 E159.96548
G1 X45.155 Y156.185 E160.00967
G1 X27.181 Y156.185 E161.95086
G1 X26.483 Y156.176 E162.02625
G1 X25.489 Y156.004 E162.1352
G1 X24.599 Y155.532 E162.244
G1 X24.22 Y155.197 E162.29863
G1 X23.644 Y154.37 E162.40747
G1 X23.46 Y153.899 E162.46209
G1 X23.325 Y153.062 E162.55365
G1 X23.315 Y152.643 E162.59891
G1 X23.315 Y88.176 E169.56135
G1 X23.354 Y85.467 E169.85395
G1 X23.315 Y81.715 E170.25919
G1 X23.315 Y70.646 E171.45464
G10
;MESH:phone_stand_for_print.STL
G0 F4500 X25.831 Y82.669
G0 X26.945 Y86.819
G0 X26.945 Y87.945
G0 X27.288 Y152.212
G0 X44.713 Y152.213
G0 X44.793 Y148.794
G11
G0 X44.5 Y148.215
;TYPE:WALL-OUTER
G1 F1800 X39.484 Y148.215 E171.99637
G1 X38.229 Y148.117 E172.13232
G1 X38.198 Y148.112 E172.13571
G1 X36.978 Y147.818 E172.27125
G1 X36.948 Y147.808 E172.27466
G1 X35.785 Y147.327 E172.41058
G1 X35.757 Y147.313 E172.41397
G1 X34.684 Y146.656 E172.54985
G1 X34.658 Y146.637 E172.55333
G1 X33.69 Y145.808 E172.69097
G1 X32.867 Y144.844 E172.82786
G1 X32.849 Y144.819 E172.83119
G1 X32.187 Y143.745 E172.96744
G1 X32.173 Y143.717 E172.97082
G1 X31.692 Y142.552 E173.10695
G1 X31.682 Y142.522 E173.11036
G1 X31.385 Y141.289 E173.24734
G1 X31.285 Y140.019 E173.38492
G1 X31.285 Y122.984 E175.2247
G1 X31.383 Y121.729 E175.36065
G1 X31.388 Y121.698 E175.36404
G1 X31.682 Y120.478 E175.49958
G1 X31.692 Y120.448 E175.50299
G1 X32.173 Y119.285 E175.63891
G1 X32.187 Y119.257 E175.64229
G1 X32.844 Y118.184 E175.77818
G1 X32.862 Y118.158 E175.78159
G1 X33.68 Y117.203 E175.91739
G1 X33.702 Y117.181 E175.92075
G1 X34.67 Y116.356 E176.05812
G1 X35.768 Y115.68 E176.19737
G1 X36.967 Y115.185 E176.33747
G1 X38.21 Y114.885 E176.47556
G1 X39.484 Y114.785 E176.61358
G1 X79.516 Y114.785 E180.93704
G1 X80.771 Y114.883 E181.07299
G1 X80.802 Y114.888 E181.07638
G1 X82.022 Y115.182 E181.21191
G1 X82.052 Y115.192 E181.21533
G1 X83.215 Y115.673 E181.35125
G1 X83.243 Y115.687 E181.35463
G1 X84.319 Y116.345 E181.49084
G1 X84.345 Y116.364 E181.49432
G1 X85.297 Y117.18 E181.62974
G1 X85.319 Y117.202 E181.6331
G1 X86.134 Y118.157 E181.76869
G1 X86.216 Y118.286 E181.7852
G1 X86.813 Y119.255 E181.90812
G1 X86.827 Y119.283 E181.9115
G1 X87.308 Y120.448 E182.04762
G1 X87.318 Y120.478 E182.05104
G1 X87.612 Y121.699 E182.18668
G1 X87.617 Y121.73 E182.19007
G1 X87.715 Y122.997 E182.32731
G1 X87.715 Y140.016 E184.16536
G1 X87.615 Y141.289 E184.30327
G1 X87.314 Y142.538 E184.44202
G1 X86.827 Y143.715 E184.57959
G1 X86.813 Y143.743 E184.58297
G1 X86.156 Y144.816 E184.71886
G1 X86.137 Y144.842 E184.72233
G1 X85.32 Y145.797 E184.85807
G1 X85.298 Y145.819 E184.86143
G1 X84.336 Y146.64 E184.99801
G1 X84.311 Y146.658 E185.00134
G1 X83.245 Y147.313 E185.13647
G1 X83.217 Y147.327 E185.13985
G1 X82.052 Y147.809 E185.27601
G1 X82.022 Y147.818 E185.27939
G1 F1640.7 X81.421 Y147.999 E185.35311
G1 F1388.3 X80.819 Y148.18 E185.43882
G1 F1294.9 X80.776 Y148.184 E185.44509
G1 F1340.2 X80.138 Y148.22 E185.53498
G1 F1413.6 X79.5 Y148.257 E185.62073
G1 F1453 X45.5 Y148.257 E190.07303
G1 F1611.9 X44.5 Y148.215 E190.19248
G0 F4500 X44.3 Y148.215
G0 X44.3 Y148.625
G0 X45.147 Y148.563
G0 X45.458 Y148.744
G1 F1443 X47.349 Y148.744 E190.44164
G1 X49.24 Y148.744 E190.6908
G1 X51.131 Y148.744 E190.93995
G1 X53.022 Y148.744 E191.18911
G1 X54.913 Y148.744 E191.43827
G1 F1446.3 X56.804 Y148.744 E191.68692
G1 X58.695 Y148.744 E191.93556
G1 X60.586 Y148.744 E192.18421
G1 X62.477 Y148.744 E192.43286
G1 F1449.6 X64.368 Y148.744 E192.681
G1 X66.259 Y148.744 E192.92913
G1 X68.15 Y148.744 E193.17727
G1 X70.041 Y148.744 E193.42541
G1 X71.932 Y148.744 E193.67355
G1 F1453 X73.823 Y148.744 E193.92117
G1 X75.714 Y148.744 E194.1688
G1 X77.605 Y148.744 E194.41642
G1 X79.496 Y148.744 E194.66405
G1 X79.538 Y148.742 E194.66956
G1 F1413.6 X80.168 Y148.73 E194.75411
G1 F1340.2 X80.798 Y148.717 E194.84275
G1 F1294.9 X80.882 Y148.714 E194.85494
G1 F1388.3 X81.509 Y148.749 E194.94056
G1 F1640.7 X82.137 Y148.784 E195.01444
G1 F1800 X95.51 Y148.785 E196.45872
G1 X95.683 Y148.89 E196.48058
G1 X95.715 Y149 E196.49295
G1 X95.715 Y152.785 E196.90173
G1 X196.285 Y152.785 E207.76329
G1 X196.285 Y142.699 E208.85258
G1 X192.5 Y142.699 E209.26136
G1 X192.319 Y142.597 E209.2838
G1 X192.285 Y142.484 E209.29654
G1 X192.285 Y103.5 E213.50681
G1 X192.289 Y103.459 E213.51126
G1 X192.428 Y103.298 E213.53423
G1 X192.5 Y103.285 E213.54214
G1 X196.285 Y103.285 E213.95092
G1 X196.285 Y70.215 E217.52248
G1 X78.215 Y70.215 E230.27404
G1 X78.215 Y74.007 E230.68357
G1 X78.142 Y74.157 E230.70159
G1 X78 Y74.215 E230.71815
G1 X64.5 Y74.215 E232.17615
G1 X64.308 Y74.095 E232.20061
G1 X64.285 Y74 E232.21116
G1 X64.285 Y70.215 E232.61994
G1 X36.314 Y70.216 E235.64081
G1 X32.875 Y70.215 E236.01222
G1 X26.716 Y70.216 E236.6774
G1 X26.715 Y81.785 E237.92685
G1 X30.5 Y81.785 E238.33563
G1 X30.687 Y81.897 E238.35917
G1 X30.715 Y82 E238.3707
G1 X30.715 Y87.5 E238.9647
G1 X30.607 Y87.685 E238.98783
G1 X30.5 Y87.715 E238.99983
G1 X26.715 Y87.715 E239.40861
G1 X26.716 Y152.784 E246.43607
G1 X45.285 Y152.785 E248.44152
G1 X45.285 Y149 E248.8503
G1 F1603.8 X45.458 Y148.744 E248.88734
G0 F4500 X45.658 Y148.744
G10
G0 X45.147 Y148.563
G0 X79.518 Y148.464
G0 X80.808 Y148.366
G0 X82.163 Y148.032
G0 X83.358 Y147.535
G0 X84.519 Y146.812
G0 X85.498 Y145.972
G0 X86.34 Y144.99
G0 X87.051 Y143.824
G0 X87.548 Y142.63
G0 X87.866 Y141.272
G0 X87.964 Y140.018
G0 X87.964 Y122.982
G0 X87.866 Y121.692
G0 X87.532 Y120.337
G0 X87.035 Y119.142
G0 X86.308 Y117.975
G0 X86.59 Y110.906
G0 X95.055 Y111.076
G11
G0 X95.435 Y110.696
G1 F1800 X38.066 Y110.697 E255.08319
G1 X36.314 Y110.696 E255.27241
G1 X36.126 Y110.582 E255.29615
G1 X36.099 Y110.481 E255.30744
G1 X36.1 Y78.255 E258.78785
G1 X36.234 Y78.082 E258.81148
G1 X36.314 Y78.066 E258.82029
G1 X184.051 Y78.066 E274.77589
G1 X184.23 Y78.166 E274.79803
G1 X184.267 Y78.281 E274.81108
G1 X184.266 Y142.695 E281.76779
G1 X184.209 Y142.823 E281.78293
G1 X184.051 Y142.897 E281.80177
G1 X95.64 Y142.897 E291.35016
G1 X95.466 Y142.79 E291.37222
G1 X95.435 Y142.229 E291.4329
G1 X95.435 Y110.696 E294.83846
G0 F4500 X95.235 Y110.696
G0 X95.035 Y111.096
;TYPE:WALL-INNER
G1 F1800 X38.066 Y111.097 E300.99111
G1 X36.314 Y111.096 E301.18033
G1 X35.953 Y110.976 E301.22142
G1 X35.748 Y110.721 E301.25675
G1 X35.699 Y110.481 E301.28321
G1 X35.699 Y78.281 E304.76081
G1 X35.797 Y77.95 E304.79809
