;FLAVOR:UltiGCode
;TIME:5656
;MATERIAL:10796
;MATERIAL2:0
;NOZZLE_DIAMETER:0.4
;MINX:23.015
;MINY:66.515
;MINZ:0.27
;MAXX:199.985
;MAXY:156.485
;MAXZ:11.07
;Generated with Cura_SteamEngine 5.0.0
M82 ;absolute extrusion mode
G0 F3000 Y50 ;avoid prime blob
G92 E0
G92 E0
G10
;LAYER_COUNT:73
;LAYER:0
M107
G0 F4500 X25.372 Y66.881 Z0.27
G0 X23.015 Y71.135
;TYPE:SKIRT
G11
G1 F1800 X23.024 Y70.47 E0.07183
G1 X23.072 Y69.907 E0.13285
G1 X23.198 Y69.356 E0.1939
G1 X23.401 Y68.828 E0.25499
G1 X23.677 Y68.334 E0.3161
G1 X24.019 Y67.884 E0.37715
G1 X24.421 Y67.487 E0.43816
G1 X24.875 Y67.15 E0.49923
G1 X25.372 Y66.881 E0.56026
G1 X25.902 Y66.684 E0.62133
G1 X26.455 Y66.565 E0.68242
G1 X27.233 Y66.517 E0.7666
G1 X66.835 Y66.515 E5.04362
G1 X67.702 Y66.531 E5.13727
G1 X70.15 Y66.665 E5.40205
G1 X72.84 Y66.741 E5.69269
G1 X75.584 Y66.741 E5.98904
G1 X78.289 Y66.664 E6.2813
G1 X80.897 Y66.527 E6.56335
G1 X81.345 Y66.515 E6.61175
G1 X195.335 Y66.515 E18.92267
G1 X196.033 Y66.525 E18.99806
G1 X196.597 Y66.573 E19.0592
G1 X197.147 Y66.7 E19.12016
G1 X197.675 Y66.904 E19.18129
G1 X198.169 Y67.179 E19.24235
G1 X198.618 Y67.522 E19.30337
G1 X199.015 Y67.924 E19.36439
G1 X199.352 Y68.379 E19.42554
G1 X199.62 Y68.876 E19.48653
G1 X199.816 Y69.406 E19.54756
G1 X199.936 Y69.959 E19.60867
G1 X199.983 Y70.733 E19.69242
G1 X199.985 Y102.84 E23.15997
G1 X199.974 Y103.547 E23.23634
G1 X199.907 Y104.214 E23.30873
G1 X199.684 Y105.417 E23.44087
G1 X199.214 Y108.164 E23.74186
G1 X198.831 Y110.855 E24.03542
G1 X198.53 Y113.507 E24.32367
G1 X198.298 Y116.237 E24.61957
G1 X198.143 Y118.98 E24.91629
G1 X198.068 Y121.65 E25.20476
G1 X198.068 Y124.393 E25.50101
G1 X198.145 Y127.069 E25.79014
G1 X198.3 Y129.806 E26.08621
G1 X198.532 Y132.534 E26.38189
G1 X198.836 Y135.2 E26.67169
G1 X199.222 Y137.911 E26.96743
G1 X199.68 Y140.582 E27.26011
G1 X199.903 Y141.744 E27.38789
G1 X199.973 Y142.377 E27.45667
G1 X199.985 Y142.829 E27.50551
G1 X199.985 Y151.799 E28.47427
G1 X199.976 Y152.526 E28.55279
G1 X199.929 Y153.089 E28.6138
G1 X199.803 Y153.64 E28.67485
G1 X199.601 Y154.168 E28.7359
G1 X199.326 Y154.662 E28.79696
G1 X198.984 Y155.112 E28.85801
G1 X198.582 Y155.51 E28.9191
G1 X198.129 Y155.847 E28.98008
G1 X197.632 Y156.117 E29.04116
G1 X197.102 Y156.314 E29.10223
G1 X196.55 Y156.435 E29.16326
G1 X195.767 Y156.483 E29.24798
G1 X96.145 Y156.484 E40.00716
G1 X95.418 Y156.47 E40.08569
G1 X94.855 Y156.419 E40.14674
G1 X94.54 Y156.355 E40.18146
G1 X93.401 Y156.075 E40.30813
G1 X90.691 Y155.45 E40.6085
G1 X88.007 Y154.913 E40.90411
G1 X85.376 Y154.462 E41.19241
G1 X82.659 Y154.075 E41.4888
G1 X80.007 Y153.774 E41.77706
G1 X77.27 Y153.541 E42.07372
G1 X74.531 Y153.386 E42.37001
G1 X71.86 Y153.31 E42.65859
G1 X69.116 Y153.31 E42.95495
G1 X66.445 Y153.386 E43.24353
G1 X63.702 Y153.541 E43.54025
G1 X60.977 Y153.772 E43.8356
G1 X58.309 Y154.076 E44.12561
G1 X55.604 Y154.46 E44.42068
G1 X52.938 Y154.917 E44.71281
G1 X50.325 Y155.44 E45.00061
G1 X47.587 Y156.071 E45.30406
G1 X46.442 Y156.357 E45.43152
G1 X45.885 Y156.455 E45.4926
G1 X45.268 Y156.483 E45.55931
G1 X27.67 Y156.485 E47.45989
G1 X26.972 Y156.476 E47.53528
G1 X26.409 Y156.428 E47.59631
G1 X25.858 Y156.302 E47.65735
G1 X25.33 Y156.1 E47.71841
G1 X24.836 Y155.825 E47.77947
G1 X24.386 Y155.483 E47.84051
G1 X23.988 Y155.081 E47.9016
G1 X23.652 Y154.627 E47.9626
G1 X23.382 Y154.13 E48.02369
G1 X23.185 Y153.6 E48.08476
G1 X23.065 Y153.048 E48.14576
G1 X23.016 Y152.251 E48.232
G1 X23.015 Y90.165 E54.93729
G1 X23.053 Y87.464 E55.22903
G1 X23.015 Y83.723 E55.63308
G1 X23.015 Y71.135 E56.99258
G0 F4500 X23.415 Y71.14
G1 F1800 X23.424 Y70.475 E57.06441
G1 X23.472 Y69.941 E57.12231
G1 X23.598 Y69.42 E57.1802
G1 X23.8 Y68.923 E57.23814
G1 X24.073 Y68.462 E57.296
G1 X24.412 Y68.046 E57.35396
G1 X24.809 Y67.686 E57.41184
G1 X25.256 Y67.388 E57.46986
G1 X25.741 Y67.16 E57.52774
G1 X26.255 Y67.007 E57.58566
G1 X26.923 Y66.925 E57.65835
G1 X27.345 Y66.915 E57.70393
G1 X66.829 Y66.915 E61.96821
G1 X67.681 Y66.93 E62.06024
G1 X70.118 Y67.063 E62.32382
G1 X72.865 Y67.141 E62.62062
G1 X75.559 Y67.141 E62.91157
G1 X78.323 Y67.063 E63.2102
G1 X80.909 Y66.927 E63.48988
G1 X81.345 Y66.915 E63.53698
G1 X195.33 Y66.915 E75.84736
G1 X196.028 Y66.925 E75.92275
G1 X196.562 Y66.973 E75.98066
G1 X197.083 Y67.099 E76.03855
G1 X197.58 Y67.302 E76.09653
G1 X198.041 Y67.576 E76.15445
G1 X198.456 Y67.915 E76.21232
G1 X198.816 Y68.313 E76.27028
G1 X199.113 Y68.759 E76.32815
G1 X199.341 Y69.245 E76.38613
G1 X199.493 Y69.759 E76.44402
G1 X199.575 Y70.424 E76.51638
G1 X199.585 Y70.845 E76.56186
G1 X199.585 Y102.834 E80.01667
G1 X199.574 Y103.541 E80.09304
G1 X199.514 Y104.141 E80.15816
G1 X199.281 Y105.398 E80.29623
G1 X198.823 Y108.071 E80.58912
G1 X198.436 Y110.79 E80.88573
G1 X198.128 Y113.499 E81.18019
G1 X197.898 Y116.215 E81.47457
G1 X197.745 Y118.912 E81.76631
G1 X197.668 Y121.675 E82.06483
G1 X197.668 Y124.37 E82.35589
G1 X197.747 Y127.137 E82.65485
G1 X197.9 Y129.829 E82.94605
G1 X198.131 Y132.546 E83.24055
G1 X198.44 Y135.261 E83.53566
G1 X198.826 Y137.969 E83.83108
G1 X199.289 Y140.666 E84.12662
G1 X199.51 Y141.819 E84.25341
G1 X199.573 Y142.389 E84.31534
G1 X199.585 Y142.829 E84.36288
G1 X199.585 Y151.794 E85.3311
G1 X199.576 Y152.521 E85.40962
G1 X199.529 Y153.055 E85.46752
G1 X199.404 Y153.576 E85.52538
G1 X199.202 Y154.073 E85.58332
G1 X198.929 Y154.535 E85.64128
G1 X198.591 Y154.951 E85.69917
G1 X198.194 Y155.312 E85.75712
G1 X197.748 Y155.61 E85.81505
G1 X197.263 Y155.838 E85.87293
G1 X196.749 Y155.992 E85.93088
G1 X196.077 Y156.075 E86.00401
G1 X195.655 Y156.085 E86.0496
G1 X96.153 Y156.084 E96.79581
G1 X95.426 Y156.07 E96.87434
G1 X94.636 Y155.967 E96.96039
G1 X93.456 Y155.677 E97.09162
G1 X90.794 Y155.064 E97.38664
G1 X88.075 Y154.519 E97.68613
G1 X85.434 Y154.066 E97.97552
G1 X82.723 Y153.68 E98.27127
G1 X80.014 Y153.373 E98.56571
G1 X77.293 Y153.141 E98.86064
G1 X74.6 Y152.988 E99.15196
G1 X71.835 Y152.91 E99.4507
G1 X69.141 Y152.91 E99.74165
G1 X66.376 Y152.988 E100.04039
G1 X63.68 Y153.141 E100.33202
G1 X60.968 Y153.371 E100.62597
G1 X58.244 Y153.681 E100.92206
G1 X55.546 Y154.065 E101.21638
G1 X52.87 Y154.523 E101.50959
G1 X50.219 Y155.054 E101.80159
G1 X47.511 Y155.678 E102.10172
G1 X46.345 Y155.969 E102.23151
G1 X45.576 Y156.075 E102.31534
G1 X45.155 Y156.085 E102.36082
G1 X27.676 Y156.085 E104.24856
G1 X26.978 Y156.076 E104.32395
G1 X26.443 Y156.029 E104.38195
G1 X25.922 Y155.903 E104.43984
G1 X25.425 Y155.701 E104.49778
G1 X24.964 Y155.428 E104.55564
G1 X24.548 Y155.089 E104.6136
G1 X24.187 Y154.693 E104.67147
G1 X23.889 Y154.247 E104.7294
G1 X23.661 Y153.761 E104.78738
G1 X23.508 Y153.247 E104.8453
G1 X23.425 Y152.573 E104.91864
G1 X23.415 Y152.143 E104.96509
G1 X23.415 Y90.171 E111.65807
G1 X23.453 Y87.466 E111.95024
G1 X23.415 Y83.719 E112.35493
G1 X23.415 Y71.14 E113.71347
G0 F4500 X23.815 Y71.146
G1 F1800 X23.824 Y70.481 E113.78529
G1 X23.871 Y69.977 E113.83996
G1 X24.198 Y69.024 E113.94877
G1 X24.469 Y68.597 E114.00339
G1 X25.195 Y67.898 E114.11224
G1 X26.103 Y67.459 E114.22116
G1 X26.934 Y67.325 E114.31207
G1 X27.345 Y67.315 E114.35647
G1 X66.823 Y67.315 E118.62009
G1 X67.659 Y67.33 E118.7104
G1 X70.084 Y67.463 E118.97269
G1 X72.854 Y67.541 E119.27197
G1 X75.57 Y67.541 E119.5653
G1 X78.315 Y67.463 E119.86188
G1 X80.922 Y67.327 E120.14382
G1 X81.345 Y67.315 E120.18952
G1 X195.324 Y67.315 E132.49925
G1 X196.022 Y67.325 E132.57464
G1 X196.525 Y67.372 E132.6292
G1 X197.015 Y67.498 E132.68384
G1 X197.905 Y67.972 E132.79275
G1 X198.283 Y68.307 E132.84729
G1 X198.858 Y69.135 E132.95617
G1 X199.148 Y70.1 E133.06499
G1 X199.184 Y70.755 E133.13584
G1 X199.185 Y102.828 E136.59972
G1 X199.174 Y103.535 E136.67609
G1 X199.12 Y104.068 E136.73395
G1 X198.895 Y105.282 E136.86729
G1 X198.426 Y108.024 E137.16773
G1 X198.042 Y110.72 E137.46183
G1 X197.731 Y113.456 E137.75922
G1 X197.499 Y116.194 E138.05599
G1 X197.345 Y118.913 E138.35011
G1 X197.268 Y121.663 E138.64723
G1 X197.268 Y124.381 E138.94077
G1 X197.347 Y127.137 E139.23854
G1 X197.503 Y129.882 E139.53548
G1 X197.733 Y132.591 E139.8291
G1 X198.041 Y135.296 E140.12313
G1 X198.429 Y138.017 E140.41997
G1 X198.889 Y140.702 E140.71418
G1 X199.118 Y141.895 E140.84537
G1 X199.184 Y142.732 E140.93605
G1 X199.185 Y151.789 E141.91421
G1 X199.176 Y152.516 E141.99273
G1 X199.13 Y153.019 E142.04728
G1 X199.005 Y153.509 E142.10189
G1 X198.533 Y154.4 E142.21079
G1 X197.808 Y155.1 E142.31963
G1 X197.372 Y155.356 E142.37424
G1 X196.407 Y155.647 E142.48309
G1 X195.745 Y155.684 E142.5547
G1 X96.16 Y155.684 E153.30988
G1 X95.433 Y155.67 E153.38841
G1 X94.731 Y155.578 E153.46487
G1 X93.561 Y155.29 E153.59501
G1 X90.891 Y154.675 E153.89092
G1 X88.156 Y154.128 E154.19215
G1 X85.482 Y153.669 E154.48516
G1 X82.793 Y153.286 E154.7785
G1 X80.025 Y152.972 E155.07937
G1 X77.346 Y152.744 E155.36974
G1 X74.599 Y152.588 E155.6669
G1 X71.846 Y152.51 E155.96434
G1 X69.13 Y152.51 E156.25767
G1 X66.377 Y152.588 E156.55511
G1 X63.659 Y152.742 E156.84913
G1 X60.891 Y152.977 E157.14915
G1 X58.209 Y153.282 E157.44067
G1 X55.499 Y153.667 E157.73629
G1 X52.796 Y154.131 E158.03248
G1 X50.116 Y154.667 E158.32765
G1 X47.439 Y155.284 E158.62435
G1 X46.248 Y155.581 E158.75692
G1 X45.564 Y155.675 E158.83148
G1 X45.155 Y155.685 E158.87567
G1 X27.681 Y155.685 E160.76286
G1 X26.983 Y155.676 E160.83825
G1 X25.989 Y155.504 E160.9472
G1 X25.099 Y155.032 E161.056
G1 X24.72 Y154.697 E161.11063
G1 X24.144 Y153.87 E161.21947
G1 X23.96 Y153.399 E161.27409
G1 X23.825 Y152.562 E161.36565
G1 X23.815 Y152.143 E161.41091
G1 X23.815 Y90.176 E168.10335
G1 X23.854 Y87.467 E168.39595
G1 X23.815 Y83.715 E168.80119
G1 X23.815 Y71.146 E170.15864
G10
;MESH:phone stand_print_V2.STL
G0 F4500 X26.319 Y71.316
G0 X27.816 Y71.316
G0 X66.713 Y71.287
G0 X66.968 Y74.579
G11
G0 X67.5 Y74.215
;TYPE:WALL-OUTER
G1 F1800 X67.296 Y74.067 E170.18586
G1 X67.285 Y73.546 E170.24214
G1 X67.285 Y70.715 E170.54789
G1 X27.216 Y70.716 E174.87534
G1 X27.215 Y83.785 E176.28679
G1 X30.5 Y83.785 E176.64157
G1 X30.657 Y83.858 E176.66027
G1 X30.715 Y84 E176.67684
G1 X30.715 Y89.5 E177.27084
G1 X30.642 Y89.657 E177.28954
G1 X30.5 Y89.715 E177.30611
G1 X27.215 Y89.715 E177.66089
G1 X27.215 Y152.285 E184.41845
G1 X45.285 Y152.285 E186.37001
G1 X45.285 Y149 E186.72479
G1 X45.358 Y148.843 E186.74348
G1 X45.5 Y148.785 E186.76005
G1 X95.5 Y148.785 E192.16005
G1 X95.693 Y148.908 E192.18477
G1 X95.715 Y149.033 E192.19848
G1 X95.715 Y152.285 E192.54969
G1 X195.785 Y152.285 E203.35725
G1 X195.785 Y145.984 E204.03776
G1 X195.785 Y142.699 E204.39254
G1 X192.5 Y142.699 E204.74732
G1 X192.313 Y142.587 E204.77086
G1 X192.285 Y142.484 E204.78239
G1 X192.285 Y103.5 E208.99266
G1 X192.394 Y103.314 E209.01594
G1 X192.5 Y103.285 E209.02781
G1 X195.785 Y103.285 E209.38259
G1 X195.785 Y70.715 E212.90015
G1 X81.215 Y70.715 E225.27371
G1 X81.215 Y74 E225.62849
G1 X81.142 Y74.157 E225.64719
G1 X81 Y74.215 E225.66376
G1 X67.5 Y74.215 E227.12176
G0 F4500 X67.339 Y74.098
G10
G0 X67.03 Y74.406
G0 X81 Y74.815
G0 X81 Y76.167
G0 X32.711 Y76.131
G0 X32.435 Y113.25
G0 X90.441 Y113.66
G11
G0 X90.821 Y113.28
G1 F1800 X38.284 Y113.281 E232.79575
G1 X32.882 Y113.28 E233.37917
G1 X32.709 Y113.168 E233.40143
G1 X32.681 Y113.065 E233.41295
G1 X32.681 Y76.592 E237.35204
G1 X32.797 Y76.402 E237.37608
G1 X32.896 Y76.377 E237.38711
G1 X187.576 Y76.377 E254.09255
G1 X187.758 Y76.481 E254.11519
G1 X187.791 Y76.592 E254.12769
G1 X187.792 Y145.566 E261.57689
G1 X187.762 Y145.672 E261.58878
G1 X187.576 Y145.781 E261.61207
G1 X91.036 Y145.781 E272.03839
G1 X90.879 Y145.708 E272.05709
G1 X90.821 Y145.566 E272.07365
G1 X90.821 Y113.28 E275.56054
G0 F4500 X90.621 Y113.28
G10
G0 X90.441 Y113.66
G0 X83.413 Y113.861
G0 X79.5 Y115.185
G0 X77.152 Y115.567
G0 X39.482 Y115.536
G0 X38.348 Y115.622
G0 X37.146 Y115.919
G0 X36.096 Y116.356
G0 X35.068 Y116.997
G0 X34.209 Y117.736
G0 X33.469 Y118.598
G0 X32.84 Y119.63
G0 X32.487 Y120.479
G0 X31.878 Y122.952
G11
G0 X32.285 Y122.984
G1 F1800 X32.371 Y121.885 E275.67959
G1 X32.376 Y121.854 E275.68299
G1 X32.633 Y120.787 E275.80152
G1 X32.643 Y120.757 E275.80493
G1 X33.064 Y119.739 E275.92391
G1 X33.078 Y119.711 E275.92729
G1 X33.653 Y118.772 E276.0462
G1 X33.671 Y118.746 E276.04962
G1 X34.397 Y117.899 E276.1701
G1 X35.243 Y117.176 E276.29029
G1 X35.268 Y117.158 E276.29362
G1 X36.209 Y116.578 E276.413
G1 X36.237 Y116.564 E276.41638
G1 X37.257 Y116.143 E276.53555
G1 X37.287 Y116.133 E276.53897
G1 X38.366 Y115.873 E276.65884
G1 X39.484 Y115.785 E276.77995
G1 X79.516 Y115.785 E281.10341
G1 X80.615 Y115.871 E281.22246
G1 X80.646 Y115.876 E281.22585
G1 X81.713 Y116.133 E281.34439
G1 X81.743 Y116.143 E281.3478
G1 X82.761 Y116.564 E281.46678
G1 X82.789 Y116.578 E281.47016
G1 X83.731 Y117.154 E281.58941
G1 X83.757 Y117.173 E281.59288
G1 X84.59 Y117.887 E281.71137
G1 X85.174 Y118.569 E281.80834
G1 X85.343 Y118.77 E281.8367
G1 X85.922 Y119.709 E281.95585
G1 X85.936 Y119.737 E281.95923
G1 X86.357 Y120.757 E282.0784
G1 X86.367 Y120.787 E282.08182
G1 X86.624 Y121.855 E282.20045
G1 X86.629 Y121.886 E282.20384
G1 X86.715 Y122.997 E282.32419
G1 X86.715 Y140.016 E284.16224
G1 X86.627 Y141.133 E284.28325
G1 X86.367 Y142.213 E284.40323
G1 X86.357 Y142.243 E284.40664
G1 X85.936 Y143.261 E284.52562
G1 X85.455 Y144.053 E284.62569
G1 X85.329 Y144.254 E284.65131
G1 X84.614 Y145.09 E284.77012
G1 X84.591 Y145.112 E284.77355
G1 X83.748 Y145.831 E284.89322
G1 X83.723 Y145.849 E284.89654
G1 X82.791 Y146.422 E285.0147
G1 X82.763 Y146.436 E285.01808
G1 X81.743 Y146.857 E285.13726
G1 X81.713 Y146.867 E285.14067
G1 X80.634 Y147.127 E285.26054
G1 X79.5 Y147.215 E285.38338
G1 X39.484 Y147.215 E289.70511
G1 X38.385 Y147.129 E289.82416
G1 X38.354 Y147.124 E289.82755
G1 X37.287 Y146.867 E289.94608
G1 X37.257 Y146.857 E289.9495
G1 X36.239 Y146.436 E290.06848
G1 X36.211 Y146.422 E290.07186
G1 X35.271 Y145.847 E290.19086
G1 X35.245 Y145.828 E290.19434
G1 X34.397 Y145.101 E290.31497
G1 X34.386 Y145.089 E290.31673
G1 X33.676 Y144.256 E290.43494
G1 X33.658 Y144.232 E290.43818
G1 X33.078 Y143.292 E290.55747
G1 X33.064 Y143.263 E290.56095
G1 X32.643 Y142.243 E290.68012
G1 X32.633 Y142.213 E290.68354
G1 X32.373 Y141.133 E290.80351
G1 X32.285 Y140.019 E290.9242
G1 X32.285 Y122.984 E292.76398
G0 F4500 X32.3 Y122.785
G0 X31.894 Y122.753
G0 X31.936 Y140.022
G0 X32.022 Y141.163
G0 X32.329 Y142.397
G0 X32.77 Y143.453
G0 X33.425 Y144.5
G0 X34.167 Y145.365
G0 X35.035 Y146.11
G0 X36.088 Y146.751
G0 X37.144 Y147.191
G0 X38.388 Y147.478
G0 X44.684 Y147.625
G0 X44.684 Y147.616
;TYPE:WALL-INNER
G1 F1800 X39.453 Y147.614 E293.32893
G1 X38.354 Y147.528 E293.44798
G1 X38.26 Y147.513 E293.45826
G1 X37.193 Y147.256 E293.57679
G1 X37.104 Y147.227 E293.5869
G1 X36.086 Y146.806 E293.70588
G1 X36.002 Y146.763 E293.71607
G1 X35.062 Y146.188 E293.83508
G1 X34.985 Y146.132 E293.84536
G1 X34.114 Y145.384 E293.96935
G1 X34.082 Y145.349 E293.97448
G1 X33.372 Y144.516 E294.09268
G1 X33.318 Y144.442 E294.10258
G1 X32.738 Y143.502 E294.22187
G1 X32.694 Y143.415 E294.2324
G1 X32.273 Y142.395 E294.35157
G1 X32.244 Y142.307 E294.36158
G1 X31.979 Y141.202 E294.4843
G1 X31.972 Y141.146 E294.4904
G1 X31.886 Y140.05 E294.60913
G1 X31.885 Y123 E296.45053
G1 X31.886 Y122.953 E296.45561
G1 X31.972 Y121.854 E296.57466
G1 X31.987 Y121.76 E296.58494
G1 X32.244 Y120.693 E296.70347
G1 X32.273 Y120.604 E296.71358
G1 X32.694 Y119.586 E296.83256
G1 X32.737 Y119.502 E296.84275
G1 X33.312 Y118.563 E296.96166
G1 X33.367 Y118.486 E296.97188
G1 X34.082 Y117.65 E297.09069
G1 X34.983 Y116.872 E297.21925
G1 X35.058 Y116.818 E297.22924
