;FLAVOR:UltiGCode
;TIME:2279
;MATERIAL:2248
;MATERIAL2:0
;NOZZLE_DIAMETER:0.4
;MINX:92.518
;MINY:92.518
;MINZ:0.27
;MAXX:130.482
;MAXY:130.482
;MAXZ:7.67
;Generated with Cura_SteamEngine 5.0.0
M82 ;absolute extrusion mode
G0 F3000 Y50 ;avoid prime blob
G92 E0
G92 E0
G10
;LAYER_COUNT:75
;LAYER:0
M107
G0 F4320 X97.982 Y98.188 Z0.27
G0 X92.883 Y107.819
;TYPE:SKIRT
G11
G1 F1800 X92.951 Y107.488 E0.03649
G1 X93.266 Y106.232 E0.17634
G1 X93.623 Y105.117 E0.30279
G1 X93.841 Y104.538 E0.3696
G1 X93.927 Y104.33 E0.39391
G1 X94.468 Y103.126 E0.53647
G1 X94.621 Y102.821 E0.57332
G1 X95.254 Y101.689 E0.71339
G1 X95.869 Y100.729 E0.83652
G1 X96.276 Y100.166 E0.91155
G1 X96.898 Y99.386 E1.0193
G1 X97.427 Y98.776 E1.1065
G1 X97.982 Y98.188 E1.19382
G1 X98.603 Y97.584 E1.28738
G1 X99.054 Y97.18 E1.35277
G1 X99.774 Y96.584 E1.45372
G1 X100.18 Y96.274 E1.50889
G1 X100.976 Y95.713 E1.61406
G1 X101.644 Y95.281 E1.69998
G1 X101.908 Y95.124 E1.73315
G1 X103.097 Y94.482 E1.87908
G1 X104.125 Y94.008 E2.00134
G1 X104.859 Y93.716 E2.08666
G1 X105.786 Y93.401 E2.1924
G1 X106.641 Y93.15 E2.28863
G1 X107.266 Y93 E2.35805
G1 X108.617 Y92.741 E2.50661
G1 X109.69 Y92.604 E2.62344
G1 X110.524 Y92.543 E2.71375
G1 X111.37 Y92.518 E2.80516
G1 X112.353 Y92.536 E2.91134
G1 X113.155 Y92.59 E2.99815
G1 X113.871 Y92.672 E3.07599
G1 X115.181 Y92.883 E3.21929
G1 X115.512 Y92.951 E3.25578
G1 X116.768 Y93.266 E3.39563
G1 X117.884 Y93.623 E3.52218
G1 X118.462 Y93.841 E3.58889
G1 X118.672 Y93.928 E3.61344
G1 X119.874 Y94.468 E3.75576
G1 X120.179 Y94.621 E3.79261
G1 X121.311 Y95.254 E3.93268
G1 X122.271 Y95.869 E4.05581
G1 X122.834 Y96.276 E4.13084
G1 X123.614 Y96.898 E4.23859
G1 X124.224 Y97.427 E4.32579
G1 X124.812 Y97.982 E4.41311
G1 X125.416 Y98.603 E4.50667
G1 X125.82 Y99.054 E4.57207
G1 X126.416 Y99.773 E4.67293
G1 X126.723 Y100.176 E4.72764
G1 X127.287 Y100.976 E4.83335
G1 X127.719 Y101.644 E4.91927
G1 X127.875 Y101.907 E4.9523
G1 X128.522 Y103.102 E5.09906
G1 X128.992 Y104.125 E5.22064
G1 X129.284 Y104.859 E5.30596
G1 X129.599 Y105.786 E5.4117
G1 X129.851 Y106.644 E5.50827
G1 X129.997 Y107.254 E5.57602
G1 X130.264 Y108.644 E5.72888
G1 X130.395 Y109.683 E5.84198
G1 X130.457 Y110.516 E5.93219
G1 X130.482 Y111.375 E6.025
G1 X130.47 Y112.184 E6.11239
G1 X130.424 Y112.986 E6.19914
G1 X130.359 Y113.642 E6.27034
G1 X130.12 Y115.166 E6.43694
G1 X130.053 Y115.496 E6.47331
G1 X129.729 Y116.787 E6.61706
G1 X129.324 Y118.026 E6.75784
G1 X129.079 Y118.655 E6.83074
G1 X128.576 Y119.782 E6.96403
G1 X128.426 Y120.084 E7.00045
G1 X127.735 Y121.331 E7.15442
G1 X127.143 Y122.253 E7.27276
G1 X126.717 Y122.845 E7.35153
G1 X126.126 Y123.586 E7.45389
G1 X125.566 Y124.233 E7.54631
G1 X125.125 Y124.705 E7.61607
G1 X124.264 Y125.544 E7.7459
G1 X123.318 Y126.343 E7.87964
G1 X122.812 Y126.732 E7.94857
G1 X122.077 Y127.252 E8.04581
G1 X121.563 Y127.584 E8.11189
G1 X120.793 Y128.04 E8.20854
G1 X119.919 Y128.511 E8.31577
G1 X118.957 Y128.954 E8.43015
G1 X117.764 Y129.415 E8.56828
G1 X117.185 Y129.611 E8.63429
G1 X116.36 Y129.85 E8.72706
G1 X115.73 Y129.999 E8.79698
G1 X114.367 Y130.262 E8.94689
G1 X113.313 Y130.396 E9.06164
G1 X112.311 Y130.465 E9.17012
G1 X111.455 Y130.482 E9.26258
G1 X110.648 Y130.464 E9.34976
G1 X109.832 Y130.409 E9.43809
G1 X109.141 Y130.33 E9.5132
G1 X107.842 Y130.121 E9.6553
G1 X107.511 Y130.054 E9.69177
G1 X106.184 Y129.721 E9.83953
G1 X105.124 Y129.38 E9.95979
G1 X104.532 Y129.156 E10.02815
G1 X103.157 Y128.547 E10.19056
G1 X102.847 Y128.392 E10.22799
G1 X101.675 Y127.738 E10.37294
G1 X100.746 Y127.143 E10.49209
G1 X100.147 Y126.711 E10.57185
G1 X99.419 Y126.131 E10.67238
G1 X98.769 Y125.567 E10.76532
G1 X98.186 Y125.017 E10.85188
G1 X97.578 Y124.39 E10.94621
G1 X97.182 Y123.947 E11.01038
G1 X96.583 Y123.226 E11.11161
G1 X96.26 Y122.802 E11.16918
G1 X95.738 Y122.062 E11.26698
G1 X95.421 Y121.57 E11.33019
G1 X94.954 Y120.78 E11.4293
G1 X94.496 Y119.928 E11.53377
G1 X94.351 Y119.63 E11.56956
G1 X93.815 Y118.392 E11.71526
G1 X93.443 Y117.355 E11.83425
G1 X93.165 Y116.405 E11.94115
G1 X92.968 Y115.606 E12.03002
G1 X92.799 Y114.753 E12.12394
G1 X92.68 Y113.97 E12.20947
G1 X92.587 Y113.122 E12.30161
G1 X92.535 Y112.303 E12.39024
G1 X92.518 Y111.46 E12.4813
G1 X92.536 Y110.649 E12.56891
G1 X92.59 Y109.843 E12.65615
G1 X92.672 Y109.13 E12.73366
G1 X92.883 Y107.819 E12.87707
G10
G0 F4320 X92.918 Y111.467
G11
G1 F1800 X92.935 Y110.674 E12.96274
G1 X92.988 Y109.885 E13.04814
G1 X93.067 Y109.194 E13.12326
G1 X93.278 Y107.883 E13.26667
G1 X93.339 Y107.585 E13.29952
G1 X93.651 Y106.342 E13.43793
G1 X94.002 Y105.244 E13.56242
G1 X94.214 Y104.681 E13.62739
G1 X94.833 Y103.29 E13.79183
G1 X94.971 Y103.016 E13.82496
G1 X95.596 Y101.895 E13.96357
G1 X96.202 Y100.95 E14.08481
G1 X96.599 Y100.402 E14.1579
G1 X97.21 Y99.636 E14.26372
G1 X97.817 Y98.941 E14.36338
G1 X98.261 Y98.474 E14.43297
G1 X98.872 Y97.88 E14.525
G1 X99.31 Y97.488 E14.58848
G1 X100.018 Y96.9 E14.68788
G1 X101.064 Y96.137 E14.82771
G1 X101.861 Y95.617 E14.93049
G1 X102.099 Y95.476 E14.96036
G1 X103.276 Y94.839 E15.1049
G1 X104.287 Y94.374 E15.22508
G1 X105.005 Y94.089 E15.30851
G1 X105.913 Y93.781 E15.41207
G1 X106.583 Y93.58 E15.48761
G1 X107.161 Y93.433 E15.55202
G1 X108.553 Y93.158 E15.70526
G1 X109.089 Y93.075 E15.76384
G1 X109.889 Y92.988 E15.85075
G1 X110.714 Y92.934 E15.94004
G1 X111.528 Y92.918 E16.02797
G1 X112.328 Y92.935 E16.11439
G1 X113.113 Y92.988 E16.19936
G1 X113.807 Y93.067 E16.2748
G1 X115.117 Y93.278 E16.4181
G1 X115.415 Y93.339 E16.45095
G1 X116.658 Y93.651 E16.58936
G1 X117.756 Y94.002 E16.71386
G1 X118.32 Y94.215 E16.77897
G1 X118.508 Y94.293 E16.80095
G1 X119.71 Y94.833 E16.94327
G1 X119.984 Y94.971 E16.9764
G1 X121.105 Y95.596 E17.11501
G1 X122.05 Y96.202 E17.23626
G1 X122.598 Y96.599 E17.30934
G1 X123.364 Y97.21 E17.41516
G1 X124.059 Y97.817 E17.51482
G1 X124.526 Y98.261 E17.58441
G1 X125.12 Y98.872 E17.67644
G1 X125.512 Y99.31 E17.73993
G1 X126.099 Y100.017 E17.83917
G1 X126.863 Y101.063 E17.97906
G1 X127.383 Y101.861 E18.08193
G1 X127.523 Y102.097 E18.11156
G1 X128.164 Y103.281 E18.25697
G1 X128.626 Y104.287 E18.37653
G1 X128.911 Y105.005 E18.45996
G1 X129.219 Y105.913 E18.56351
G1 X129.42 Y106.583 E18.63906
G1 X129.564 Y107.152 E18.70245
G1 X129.846 Y108.577 E18.85933
G1 X129.925 Y109.086 E18.91496
G1 X130.013 Y109.888 E19.0021
G1 X130.065 Y110.701 E19.09008
G1 X130.082 Y111.542 E19.18093
G1 X130.064 Y112.33 E19.26605
G1 X130.012 Y113.115 E19.35102
G1 X129.935 Y113.795 E19.42493
G1 X129.725 Y115.102 E19.5679
G1 X129.665 Y115.4 E19.60073
G1 X129.345 Y116.677 E19.74291
G1 X128.945 Y117.895 E19.88136
G1 X128.713 Y118.492 E19.95054
G1 X128.21 Y119.619 E20.08382
G1 X128.075 Y119.89 E20.11652
G1 X127.392 Y121.125 E20.26894
G1 X126.81 Y122.032 E20.38533
G1 X126.289 Y122.746 E20.48079
G1 X125.723 Y123.445 E20.57793
G1 X125.17 Y124.074 E20.66838
G1 X124.721 Y124.545 E20.73866
G1 X123.986 Y125.257 E20.84917
G1 X123.062 Y126.035 E20.97963
G1 X122.58 Y126.406 E21.04532
G1 X121.857 Y126.917 E21.14094
G1 X121.358 Y127.241 E21.20519
G1 X120.602 Y127.688 E21.30005
G1 X119.741 Y128.153 E21.40573
G1 X118.795 Y128.588 E21.51818
G1 X117.622 Y129.041 E21.65398
G1 X117.072 Y129.228 E21.71672
G1 X116.265 Y129.462 E21.80747
G1 X115.654 Y129.607 E21.87529
G1 X114.305 Y129.867 E22.02366
G1 X113.267 Y129.998 E22.13666
G1 X112.461 Y130.057 E22.22394
G1 X111.614 Y130.082 E22.31545
G1 X110.673 Y130.065 E22.4171
G1 X109.874 Y130.011 E22.50359
G1 X109.204 Y129.935 E22.57641
G1 X107.905 Y129.726 E22.71851
G1 X107.608 Y129.666 E22.75123
G1 X106.294 Y129.336 E22.89755
G1 X105.252 Y129.001 E23.01576
G1 X104.676 Y128.783 E23.08227
G1 X103.32 Y128.182 E23.24246
G1 X103.041 Y128.043 E23.27612
G1 X101.881 Y127.396 E23.41957
G1 X100.967 Y126.809 E23.53689
G1 X100.382 Y126.387 E23.61479
G1 X99.669 Y125.819 E23.71324
G1 X98.937 Y125.179 E23.81826
G1 X98.473 Y124.737 E23.88747
G1 X97.875 Y124.122 E23.98011
G1 X97.489 Y123.691 E24.0426
G1 X96.9 Y122.982 E24.14214
G1 X96.586 Y122.57 E24.19809
G1 X96.073 Y121.844 E24.2941
G1 X95.764 Y121.365 E24.35566
G1 X95.306 Y120.591 E24.45279
G1 X94.848 Y119.739 E24.55726
G1 X94.718 Y119.471 E24.58943
G1 X94.187 Y118.245 E24.73372
G1 X93.821 Y117.225 E24.85076
G1 X93.515 Y116.167 E24.9697
G1 X93.36 Y115.526 E25.04093
G1 X93.194 Y114.691 E25.13287
G1 X93.077 Y113.924 E25.21667
G1 X92.986 Y113.095 E25.30674
G1 X92.935 Y112.293 E25.39353
G1 X92.918 Y111.467 E25.48275
G0 F4320 X93.317 Y111.474
G1 F1800 X93.334 Y110.699 E25.56647
G1 X93.386 Y109.927 E25.65004
G1 X93.462 Y109.258 E25.72276
G1 X93.673 Y107.947 E25.86617
G1 X93.727 Y107.681 E25.89548
G1 X94.035 Y106.452 E26.03232
G1 X94.381 Y105.372 E26.1548
G1 X94.588 Y104.825 E26.21796
G1 X94.657 Y104.657 E26.23758
G1 X95.198 Y103.453 E26.38013
G1 X95.32 Y103.21 E26.4095
G1 X95.939 Y102.102 E26.54657
G1 X96.536 Y101.17 E26.66611
G1 X96.921 Y100.639 E26.73694
G1 X97.521 Y99.887 E26.84084
G1 X98.108 Y99.216 E26.93712
G1 X98.541 Y98.76 E27.00504
G1 X99.14 Y98.177 E27.09531
G1 X99.566 Y97.795 E27.15711
G1 X100.263 Y97.217 E27.2549
G1 X101.295 Y96.463 E27.39294
G1 X102.078 Y95.953 E27.49386
G1 X102.29 Y95.828 E27.52044
G1 X103.456 Y95.196 E27.66367
G1 X104.448 Y94.74 E27.78159
G1 X105.151 Y94.461 E27.86327
G1 X106.039 Y94.16 E27.96453
G1 X106.834 Y93.926 E28.05404
G1 X107.418 Y93.786 E28.11889
G1 X108.741 Y93.531 E28.26441
G1 X109.78 Y93.399 E28.37752
G1 X110.724 Y93.334 E28.47972
G1 X111.521 Y93.317 E28.56581
G1 X112.303 Y93.334 E28.65029
G1 X113.071 Y93.386 E28.73342
G1 X113.744 Y93.462 E28.80657
G1 X115.054 Y93.673 E28.94987
G1 X115.319 Y93.727 E28.97908
G1 X116.548 Y94.035 E29.11592
G1 X117.629 Y94.381 E29.2385
G1 X118.177 Y94.588 E29.30176
G1 X119.546 Y95.198 E29.46363
G1 X119.79 Y95.32 E29.49309
G1 X120.898 Y95.939 E29.63016
G1 X121.83 Y96.536 E29.7497
G1 X122.361 Y96.921 E29.82053
G1 X123.113 Y97.521 E29.92443
G1 X123.784 Y98.108 E30.02072
G1 X124.24 Y98.541 E30.08863
G1 X124.823 Y99.14 E30.17891
G1 X125.205 Y99.566 E30.2407
G1 X125.783 Y100.262 E30.33841
G1 X126.537 Y101.295 E30.47653
G1 X127.047 Y102.078 E30.57745
G1 X127.172 Y102.288 E30.60385
G1 X127.806 Y103.46 E30.74776
G1 X128.26 Y104.448 E30.86519
G1 X128.539 Y105.151 E30.94687
G1 X128.84 Y106.039 E31.04814
G1 X129.074 Y106.836 E31.13784
G1 X129.211 Y107.407 E31.20126
G1 X129.474 Y108.768 E31.35097
G1 X129.601 Y109.773 E31.46037
G1 X129.665 Y110.71 E31.56181
G1 X129.682 Y111.535 E31.65092
G1 X129.665 Y112.305 E31.7341
G1 X129.614 Y113.074 E31.81734
G1 X129.54 Y113.732 E31.88885
G1 X129.33 Y115.039 E32.03182
G1 X129.276 Y115.303 E32.06092
G1 X128.96 Y116.566 E32.20153
G1 X128.567 Y117.765 E32.3378
G1 X128.348 Y118.329 E32.40314
G1 X127.845 Y119.456 E32.53643
G1 X127.725 Y119.697 E32.56551
G1 X127.049 Y120.919 E32.71633
G1 X126.476 Y121.811 E32.83083
G1 X126.07 Y122.374 E32.9058
G1 X125.421 Y123.182 E33.01772
G1 X124.879 Y123.799 E33.10642
G1 X124.442 Y124.257 E33.17479
G1 X123.707 Y124.969 E33.2853
G1 X122.807 Y125.727 E33.41238
G1 X122.348 Y126.08 E33.47492
G1 X121.638 Y126.583 E33.56889
G1 X121.153 Y126.897 E33.63129
G1 X120.412 Y127.336 E33.72431
G1 X119.562 Y127.795 E33.82864
G1 X118.633 Y128.223 E33.93911
G1 X117.479 Y128.668 E34.07269
G1 X116.958 Y128.844 E34.13208
G1 X116.17 Y129.073 E34.2207
G1 X115.577 Y129.214 E34.28653
G1 X114.243 Y129.472 E34.43327
G1 X113.222 Y129.601 E34.54442
G1 X112.291 Y129.665 E34.6452
G1 X111.469 Y129.683 E34.734
G1 X110.698 Y129.666 E34.81729
G1 X109.916 Y129.613 E34.90194
G1 X109.268 Y129.54 E34.97237
G1 X107.969 Y129.331 E35.11446
G1 X107.705 Y129.277 E35.14357
G1 X106.404 Y128.952 E35.28839
G1 X105.379 Y128.622 E35.40469
G1 X104.659 Y128.343 E35.48808
G1 X103.483 Y127.817 E35.62721
G1 X103.236 Y127.693 E35.65706
G1 X102.088 Y127.053 E35.79901
G1 X101.188 Y126.476 E35.91447
G1 X100.618 Y126.064 E35.99043
G1 X99.818 Y125.422 E36.10121
G1 X99.211 Y124.887 E36.1886
G1 X98.759 Y124.458 E36.2559
G1 X98.172 Y123.853 E36.34694
G1 X97.796 Y123.434 E36.40774
G1 X97.217 Y122.737 E36.5056
G1 X96.912 Y122.339 E36.55976
G1 X96.408 Y121.625 E36.65414
G1 X96.108 Y121.16 E36.71391
G1 X95.658 Y120.401 E36.8092
G1 X95.2 Y119.549 E36.91367
G1 X95.085 Y119.311 E36.94222
G1 X94.559 Y118.098 E37.08501
G1 X94.2 Y117.096 E37.19996
G1 X93.934 Y116.184 E37.30256
G1 X93.752 Y115.446 E37.38465
G1 X93.589 Y114.63 E37.47452
G1 X93.475 Y113.879 E37.55656
G1 X93.385 Y113.067 E37.64479
G1 X93.335 Y112.283 E37.72964
G1 X93.317 Y111.474 E37.81703
G10
;MESH:66stamp_fillet.STL
G0 F4320 X95.817 Y111.489
G0 X96.943 Y111.493
G11
G0 X96.714 Y111.43
;TYPE:WALL-OUTER
G1 F1800 X96.725 Y112.087 E37.888
G1 X96.764 Y112.712 E37.95563
G1 X96.832 Y113.363 E38.02632
G1 X96.928 Y114 E38.09589
G1 X97.037 Y114.571 E38.15867
G1 X97.21 Y115.298 E38.23938
G1 X97.381 Y115.895 E38.30645
G1 X97.577 Y116.48 E38.37308
G1 X97.815 Y117.1 E38.44481
G1 X98.069 Y117.684 E38.51359
G1 X98.355 Y118.269 E38.58391
G1 X98.647 Y118.808 E38.65012
G1 X98.965 Y119.344 E38.71743
G1 X99.272 Y119.812 E38.77788
G1 X99.624 Y120.309 E38.84365
G1 X99.947 Y120.727 E38.9007
G1 X100.35 Y121.212 E38.9688
G1 X100.711 Y121.611 E39.02692
G1 X101.142 Y122.054 E39.09367
G1 X101.556 Y122.442 E39.15495
G1 X102 Y122.831 E39.2187
G1 X102.389 Y123.146 E39.27276
G1 X102.953 Y123.566 E39.3487
G1 X103.511 Y123.942 E39.42137
G1 X104.027 Y124.257 E39.48666
G1 X104.593 Y124.573 E39.55667
G1 X105.212 Y124.881 E39.63134
G1 X105.759 Y125.124 E39.69599
G1 X106.376 Y125.369 E39.76769
G1 X106.997 Y125.583 E39.83862
G1 X107.602 Y125.762 E39.90676
G1 X108.234 Y125.919 E39.97709
G1 X108.863 Y126.048 E40.04644
G1 X109.502 Y126.149 E40.11631
G1 X110.151 Y126.224 E40.18687
G1 X110.792 Y126.269 E40.25627
G1 X111.429 Y126.286 E40.32509
G1 X112.083 Y126.275 E40.39573
G1 X112.712 Y126.236 E40.46379
G1 X113.367 Y126.167 E40.53492
G1 X113.996 Y126.072 E40.60362
G1 X114.611 Y125.954 E40.67126
G1 X115.245 Y125.804 E40.74162
G1 X115.9 Y125.618 E40.81516
G1 X116.467 Y125.428 E40.87974
G1 X117.124 Y125.176 E40.95573
G1 X117.659 Y124.942 E41.0188
G1 X118.275 Y124.642 E41.0928
G1 X118.801 Y124.358 E41.15736
G1 X119.349 Y124.033 E41.22617
G1 X119.825 Y123.719 E41.28775
G1 X120.306 Y123.378 E41.35143
G1 X120.725 Y123.054 E41.40863
G1 X121.209 Y122.653 E41.47652
G1 X121.594 Y122.305 E41.53256
G1 X122.052 Y121.859 E41.60161
G1 X122.396 Y121.496 E41.65562
G1 X122.834 Y120.997 E41.72733
G1 X123.184 Y120.561 E41.78771
G1 X123.565 Y120.047 E41.85681
G1 X123.941 Y119.491 E41.9293
G1 X124.266 Y118.958 E41.99672
G1 X124.568 Y118.416 E42.06373
G1 X124.885 Y117.78 E42.14048
G1 X125.121 Y117.251 E42.20304
G1 X125.372 Y116.619 E42.27648
G1 X125.577 Y116.021 E42.34475
G1 X125.768 Y115.374 E42.41761
G1 X125.915 Y114.782 E42.48349
G1 X126.048 Y114.139 E42.5544
G1 X126.15 Y113.493 E42.62503
G1 X126.224 Y112.849 E42.69504
G1 X126.269 Y112.205 E42.76476
G1 X126.286 Y111.57 E42.83337
G1 X126.286 Y111.569 E42.83348
G1 X126.275 Y110.917 E42.9039
G1 X126.236 Y110.281 E42.97272
G1 X126.169 Y109.642 E43.04211
G1 X126.07 Y108.988 E43.11355
G1 X125.956 Y108.397 E43.17855
G1 X125.8 Y107.742 E43.25127
G1 X125.621 Y107.113 E43.3219
G1 X125.41 Y106.485 E43.39345
G1 X125.192 Y105.919 E43.45895
G1 X124.929 Y105.312 E43.5304
G1 X124.644 Y104.729 E43.60048
G1 X124.358 Y104.199 E43.66553
G1 X124.025 Y103.638 E43.73598
G1 X123.734 Y103.196 E43.79314
G1 X123.376 Y102.691 E43.85999
G1 X123.05 Y102.268 E43.91767
G1 X122.647 Y101.784 E43.98569
G1 X122.289 Y101.389 E44.04326
G1 X121.856 Y100.944 E44.11032
G1 X121.446 Y100.558 E44.17113
G1 X121.002 Y100.17 E44.23482
G1 X120.609 Y99.854 E44.28928
G1 X120.039 Y99.429 E44.36607
G1 X119.495 Y99.063 E44.43688
