;FLAVOR:UltiGCode
;TIME:2297
;MATERIAL:2258
;MATERIAL2:0
;NOZZLE_DIAMETER:0.4
;MINX:92.518
;MINY:92.518
;MINZ:0.27
;MAXX:130.482
;MAXY:130.482
;MAXZ:7.67
;Generated with Cura_SteamEngine 5.0.0
M82 ;absolute extrusion mode
G0 F3000 Y50 ;avoid prime blob
G92 E0
G92 E0
G10
;LAYER_COUNT:75
;LAYER:0
M107
G0 F4320 X97.982 Y98.188 Z0.27
G0 X92.889 Y107.773
;TYPE:SKIRT
G11
G1 F1800 X93.094 Y106.87 E0.10001
G1 X93.48 Y105.547 E0.24885
G1 X93.656 Y105.022 E0.30865
G1 X93.972 Y104.211 E0.40265
G1 X94.305 Y103.455 E0.49187
G1 X94.613 Y102.839 E0.56625
G1 X95.265 Y101.671 E0.71072
G1 X95.869 Y100.729 E0.83157
G1 X96.276 Y100.166 E0.9066
G1 X96.898 Y99.386 E1.01434
G1 X97.427 Y98.776 E1.10154
G1 X97.982 Y98.188 E1.18887
G1 X98.603 Y97.584 E1.28243
G1 X99.054 Y97.18 E1.34782
G1 X99.774 Y96.584 E1.44877
G1 X100.18 Y96.274 E1.50393
G1 X100.976 Y95.713 E1.60911
G1 X101.644 Y95.281 E1.69502
G1 X101.908 Y95.124 E1.7282
G1 X103.097 Y94.482 E1.87413
G1 X104.125 Y94.008 E1.99639
G1 X104.859 Y93.716 E2.0817
G1 X105.786 Y93.401 E2.18744
G1 X106.641 Y93.15 E2.28368
G1 X107.266 Y93 E2.3531
G1 X108.617 Y92.741 E2.50166
G1 X109.69 Y92.604 E2.61849
G1 X110.524 Y92.543 E2.7088
G1 X111.37 Y92.518 E2.80021
G1 X112.328 Y92.536 E2.90369
G1 X113.176 Y92.592 E2.99547
G1 X113.855 Y92.669 E3.06927
G1 X115.202 Y92.885 E3.21661
G1 X116.118 Y93.091 E3.31801
G1 X117.441 Y93.476 E3.46682
G1 X117.98 Y93.657 E3.52822
G1 X118.791 Y93.972 E3.62219
G1 X119.545 Y94.305 E3.71121
G1 X120.159 Y94.612 E3.78535
G1 X121.335 Y95.268 E3.93078
G1 X122.271 Y95.869 E4.05091
G1 X122.834 Y96.276 E4.12594
G1 X123.614 Y96.898 E4.23368
G1 X124.224 Y97.427 E4.32089
G1 X124.812 Y97.982 E4.40821
G1 X125.416 Y98.603 E4.50177
G1 X125.82 Y99.054 E4.56716
G1 X126.416 Y99.773 E4.66802
G1 X126.723 Y100.176 E4.72274
G1 X127.287 Y100.976 E4.82845
G1 X127.719 Y101.644 E4.91437
G1 X127.875 Y101.907 E4.94739
G1 X128.522 Y103.102 E5.09415
G1 X128.992 Y104.125 E5.21574
G1 X129.284 Y104.859 E5.30106
G1 X129.599 Y105.786 E5.40679
G1 X129.851 Y106.644 E5.50337
G1 X129.997 Y107.254 E5.57111
G1 X130.264 Y108.644 E5.72398
G1 X130.395 Y109.683 E5.83708
G1 X130.457 Y110.516 E5.92729
G1 X130.482 Y111.375 E6.0201
G1 X130.471 Y112.17 E6.10597
G1 X130.424 Y112.986 E6.19424
G1 X130.357 Y113.657 E6.26707
G1 X130.136 Y115.081 E6.42271
G1 X130.033 Y115.606 E6.48049
G1 X129.854 Y116.323 E6.5603
G1 X129.466 Y117.62 E6.70651
G1 X129.331 Y117.996 E6.74965
G1 X128.891 Y119.103 E6.87831
G1 X128.676 Y119.584 E6.93521
G1 X128.266 Y120.397 E7.03355
G1 X127.926 Y121.012 E7.10944
G1 X127.495 Y121.722 E7.19914
G1 X127.045 Y122.395 E7.28658
G1 X126.6 Y122.997 E7.36743
G1 X126.024 Y123.708 E7.46625
G1 X125.461 Y124.349 E7.55839
G1 X124.999 Y124.832 E7.63058
G1 X124.264 Y125.544 E7.7411
G1 X123.318 Y126.343 E7.87483
G1 X122.812 Y126.732 E7.94376
G1 X122.077 Y127.252 E8.041
G1 X121.563 Y127.584 E8.10708
G1 X120.793 Y128.04 E8.20373
G1 X119.919 Y128.511 E8.31096
G1 X118.957 Y128.954 E8.42534
G1 X117.77 Y129.413 E8.56279
G1 X117.185 Y129.611 E8.62949
G1 X116.36 Y129.85 E8.72225
G1 X115.73 Y129.999 E8.79217
G1 X114.367 Y130.262 E8.94209
G1 X113.313 Y130.396 E9.05684
G1 X112.311 Y130.465 E9.16531
G1 X111.452 Y130.482 E9.2581
G1 X110.676 Y130.465 E9.34193
G1 X109.824 Y130.408 E9.43415
G1 X109.135 Y130.33 E9.50904
G1 X107.795 Y130.115 E9.65561
G1 X106.872 Y129.907 E9.75779
G1 X105.428 Y129.481 E9.92039
G1 X105.104 Y129.369 E9.95741
G1 X103.882 Y128.884 E10.0994
G1 X102.873 Y128.408 E10.21989
G1 X102.142 Y128.016 E10.30947
G1 X101.417 Y127.584 E10.40062
G1 X100.746 Y127.143 E10.48734
G1 X100.148 Y126.712 E10.56695
G1 X99.416 Y126.129 E10.66802
G1 X98.663 Y125.471 E10.77601
G1 X98.185 Y125.017 E10.84721
G1 X97.575 Y124.387 E10.94192
G1 X97.181 Y123.946 E11.00579
G1 X96.585 Y123.227 E11.10665
G1 X96.259 Y122.8 E11.16467
G1 X95.739 Y122.064 E11.26199
G1 X95.42 Y121.57 E11.3255
G1 X94.951 Y120.776 E11.4251
G1 X94.494 Y119.923 E11.52961
G1 X94.352 Y119.63 E11.56477
G1 X93.814 Y118.387 E11.71105
G1 X93.438 Y117.338 E11.8314
G1 X93.164 Y116.401 E11.93684
G1 X92.968 Y115.606 E12.02527
G1 X92.799 Y114.753 E12.11918
G1 X92.68 Y113.97 E12.20472
G1 X92.587 Y113.123 E12.29674
G1 X92.534 Y112.287 E12.38721
G1 X92.518 Y111.458 E12.47676
G1 X92.536 Y110.673 E12.56156
G1 X92.592 Y109.821 E12.65378
G1 X92.669 Y109.147 E12.72704
G1 X92.889 Y107.773 E12.87733
G10
G0 F4320 X92.918 Y111.465
G11
G1 F1800 X92.935 Y110.698 E12.96018
G1 X92.99 Y109.863 E13.05056
G1 X93.064 Y109.21 E13.12153
G1 X93.282 Y107.85 E13.27029
G1 X93.482 Y106.965 E13.36828
G1 X93.863 Y105.66 E13.5151
G1 X94.03 Y105.165 E13.57152
G1 X94.338 Y104.371 E13.6635
G1 X94.665 Y103.631 E13.75088
G1 X94.963 Y103.033 E13.82303
G1 X95.607 Y101.877 E13.96595
G1 X96.202 Y100.95 E14.08491
G1 X96.599 Y100.402 E14.158
G1 X97.21 Y99.636 E14.26382
G1 X97.817 Y98.941 E14.36348
G1 X98.261 Y98.474 E14.43307
G1 X98.872 Y97.88 E14.5251
G1 X99.31 Y97.488 E14.58858
G1 X100.018 Y96.9 E14.68798
G1 X101.064 Y96.137 E14.82781
G1 X101.861 Y95.617 E14.93058
G1 X102.099 Y95.476 E14.96046
G1 X103.276 Y94.839 E15.105
G1 X104.287 Y94.374 E15.22518
G1 X105.005 Y94.089 E15.30861
G1 X105.913 Y93.781 E15.41216
G1 X106.583 Y93.58 E15.48771
G1 X107.161 Y93.433 E15.55212
G1 X108.553 Y93.158 E15.70536
G1 X109.089 Y93.075 E15.76394
G1 X109.889 Y92.988 E15.85085
G1 X110.714 Y92.934 E15.94014
G1 X111.53 Y92.918 E16.02829
G1 X112.304 Y92.935 E16.1119
G1 X113.135 Y92.99 E16.20184
G1 X113.792 Y93.064 E16.27325
G1 X115.127 Y93.278 E16.41927
G1 X116.023 Y93.479 E16.51844
G1 X117.445 Y93.896 E16.67848
G1 X118.482 Y94.278 E16.79784
G1 X119.225 Y94.598 E16.88521
G1 X119.802 Y94.877 E16.95443
G1 X121.009 Y95.541 E17.10321
G1 X121.493 Y95.834 E17.16431
G1 X122.196 Y96.304 E17.25564
G1 X122.723 Y96.695 E17.32651
G1 X123.48 Y97.307 E17.43164
G1 X124.059 Y97.817 E17.51497
G1 X124.526 Y98.261 E17.58457
G1 X125.12 Y98.872 E17.6766
G1 X125.512 Y99.31 E17.74008
G1 X126.099 Y100.017 E17.83932
G1 X126.863 Y101.063 E17.97922
G1 X127.383 Y101.861 E18.08208
G1 X127.523 Y102.097 E18.11172
G1 X128.164 Y103.281 E18.25713
G1 X128.626 Y104.287 E18.37668
G1 X128.911 Y105.005 E18.46011
G1 X129.219 Y105.913 E18.56367
G1 X129.42 Y106.583 E18.63921
G1 X129.564 Y107.152 E18.7026
G1 X129.846 Y108.577 E18.85949
G1 X129.925 Y109.086 E18.91512
G1 X130.013 Y109.888 E19.00225
G1 X130.065 Y110.701 E19.09024
G1 X130.082 Y111.537 E19.18054
G1 X130.065 Y112.326 E19.26577
G1 X130.012 Y113.112 E19.35086
G1 X129.934 Y113.803 E19.42596
G1 X129.721 Y115.133 E19.57143
G1 X129.517 Y116.037 E19.67151
G1 X129.147 Y117.308 E19.81448
G1 X128.959 Y117.849 E19.87634
G1 X128.524 Y118.944 E20.00359
G1 X128.318 Y119.405 E20.05812
G1 X127.914 Y120.206 E20.15501
G1 X127.584 Y120.806 E20.22896
G1 X127.161 Y121.501 E20.31683
G1 X126.721 Y122.16 E20.40241
G1 X126.289 Y122.746 E20.48104
G1 X125.723 Y123.445 E20.57817
G1 X125.17 Y124.074 E20.66863
G1 X124.721 Y124.545 E20.7389
G1 X123.986 Y125.257 E20.84942
G1 X123.062 Y126.035 E20.97988
G1 X122.58 Y126.406 E21.04557
G1 X121.857 Y126.917 E21.14119
G1 X121.358 Y127.241 E21.20544
G1 X120.602 Y127.688 E21.30029
G1 X119.741 Y128.153 E21.40598
G1 X118.795 Y128.588 E21.51843
G1 X117.628 Y129.039 E21.65355
G1 X117.072 Y129.228 E21.71697
G1 X116.265 Y129.462 E21.80772
G1 X115.654 Y129.607 E21.87554
G1 X114.305 Y129.867 E22.02391
G1 X113.267 Y129.998 E22.1369
G1 X112.461 Y130.057 E22.22419
G1 X111.614 Y130.082 E22.3157
G1 X110.7 Y130.065 E22.41443
G1 X109.867 Y130.011 E22.50458
G1 X109.198 Y129.935 E22.5773
G1 X107.872 Y129.722 E22.72234
G1 X106.966 Y129.518 E22.82264
G1 X105.542 Y129.098 E22.98298
G1 X105.251 Y128.997 E23.01625
G1 X104.042 Y128.517 E23.15674
G1 X103.049 Y128.049 E23.27529
G1 X102.333 Y127.665 E23.36304
G1 X101.495 Y127.16 E23.46871
G1 X100.836 Y126.719 E23.55435
G1 X100.244 Y126.282 E23.63382
G1 X99.558 Y125.725 E23.72925
G1 X98.937 Y125.18 E23.81848
G1 X98.472 Y124.737 E23.88785
G1 X97.872 Y124.119 E23.98087
G1 X97.488 Y123.689 E24.04313
G1 X96.901 Y122.983 E24.14229
G1 X96.585 Y122.569 E24.19854
G1 X96.074 Y121.846 E24.29416
G1 X95.764 Y121.364 E24.35605
G1 X95.304 Y120.587 E24.45357
G1 X94.847 Y119.734 E24.55809
G1 X94.719 Y119.47 E24.58977
G1 X94.186 Y118.24 E24.73455
G1 X93.816 Y117.209 E24.85285
G1 X93.549 Y116.291 E24.9561
G1 X93.36 Y115.526 E25.04121
G1 X93.194 Y114.691 E25.13315
G1 X93.077 Y113.924 E25.21695
G1 X92.986 Y113.096 E25.30691
G1 X92.934 Y112.277 E25.39554
G1 X92.918 Y111.465 E25.48325
G0 F4320 X93.318 Y111.472
G1 F1800 X93.334 Y110.723 E25.56416
G1 X93.388 Y109.905 E25.6527
G1 X93.459 Y109.273 E25.72138
G1 X93.675 Y107.926 E25.86872
G1 X93.871 Y107.06 E25.96461
G1 X94.28 Y105.667 E26.12141
G1 X94.65 Y104.664 E26.23686
G1 X94.965 Y103.934 E26.32273
G1 X95.236 Y103.374 E26.38992
G1 X95.894 Y102.181 E26.53706
G1 X96.168 Y101.727 E26.59433
G1 X96.626 Y101.041 E26.68342
G1 X97.006 Y100.528 E26.75236
G1 X97.608 Y99.783 E26.85581
G1 X98.108 Y99.216 E26.93745
G1 X98.541 Y98.76 E27.00537
G1 X99.14 Y98.177 E27.09564
G1 X99.566 Y97.795 E27.15744
G1 X100.263 Y97.217 E27.25523
G1 X101.295 Y96.463 E27.39327
G1 X102.078 Y95.953 E27.49419
G1 X102.29 Y95.828 E27.52077
G1 X103.456 Y95.196 E27.664
G1 X104.448 Y94.74 E27.78191
G1 X105.151 Y94.461 E27.8636
G1 X106.039 Y94.16 E27.96486
G1 X106.834 Y93.926 E28.05437
G1 X107.418 Y93.786 E28.11922
G1 X108.741 Y93.531 E28.26474
G1 X109.78 Y93.399 E28.37785
G1 X110.724 Y93.334 E28.48005
G1 X111.523 Y93.318 E28.56635
G1 X112.279 Y93.334 E28.64802
G1 X113.093 Y93.387 E28.73612
G1 X113.729 Y93.459 E28.80525
G1 X115.052 Y93.671 E28.94995
G1 X115.928 Y93.868 E29.04692
G1 X117.215 Y94.243 E29.1917
G1 X117.693 Y94.404 E29.24617
G1 X118.471 Y94.706 E29.33631
G1 X119.193 Y95.024 E29.42151
G1 X119.771 Y95.312 E29.49125
G1 X120.921 Y95.952 E29.63339
G1 X121.83 Y96.536 E29.75008
G1 X122.361 Y96.921 E29.82091
G1 X123.113 Y97.521 E29.92481
G1 X123.784 Y98.108 E30.0211
G1 X124.24 Y98.541 E30.08901
G1 X124.823 Y99.14 E30.17929
G1 X125.205 Y99.566 E30.24108
G1 X125.783 Y100.262 E30.33879
G1 X126.537 Y101.295 E30.47691
G1 X127.047 Y102.078 E30.57783
G1 X127.172 Y102.288 E30.60423
G1 X127.806 Y103.46 E30.74814
G1 X128.26 Y104.448 E30.86557
G1 X128.539 Y105.151 E30.94725
G1 X128.84 Y106.039 E31.04852
G1 X129.074 Y106.836 E31.13822
G1 X129.211 Y107.407 E31.20164
G1 X129.474 Y108.768 E31.35135
G1 X129.601 Y109.773 E31.46075
G1 X129.665 Y110.71 E31.56219
G1 X129.683 Y111.53 E31.65077
G1 X129.666 Y112.301 E31.73405
G1 X129.614 Y113.07 E31.8173
G1 X129.539 Y113.74 E31.89011
G1 X129.328 Y115.058 E32.03426
G1 X129.128 Y115.943 E32.13226
G1 X128.763 Y117.195 E32.2731
G1 X128.587 Y117.702 E32.33106
G1 X128.157 Y118.784 E32.45681
G1 X127.613 Y119.919 E32.59274
G1 X127.241 Y120.6 E32.67655
G1 X126.828 Y121.281 E32.76256
G1 X126.398 Y121.924 E32.8461
G1 X125.977 Y122.495 E32.92272
G1 X125.421 Y123.182 E33.01817
G1 X124.879 Y123.799 E33.10687
G1 X124.442 Y124.257 E33.17523
G1 X123.707 Y124.969 E33.28575
G1 X122.807 Y125.727 E33.41283
G1 X122.348 Y126.08 E33.47537
G1 X121.638 Y126.583 E33.56934
G1 X121.153 Y126.897 E33.63174
G1 X120.412 Y127.336 E33.72476
G1 X119.562 Y127.795 E33.82909
G1 X118.633 Y128.223 E33.93956
G1 X117.485 Y128.665 E34.07241
G1 X116.958 Y128.844 E34.13252
G1 X116.17 Y129.073 E34.22115
G1 X115.577 Y129.214 E34.28698
G1 X114.243 Y129.472 E34.43372
G1 X113.222 Y129.601 E34.54486
G1 X112.291 Y129.665 E34.64565
G1 X111.467 Y129.682 E34.73466
G1 X110.725 Y129.666 E34.81482
G1 X109.909 Y129.613 E34.90313
G1 X109.261 Y129.539 E34.97357
G1 X107.948 Y129.329 E35.11717
G1 X107.06 Y129.13 E35.21546
G1 X105.657 Y128.715 E35.37347
G1 X105.398 Y128.625 E35.40308
G1 X104.202 Y128.15 E35.54207
G1 X103.224 Y127.69 E35.65879
G1 X102.395 Y127.24 E35.76066
G1 X101.716 Y126.826 E35.84655
G1 X101.072 Y126.395 E35.93024
G1 X100.495 Y125.971 E36.00757
G1 X99.821 Y125.424 E36.10132
G1 X99.211 Y124.888 E36.18902
G1 X98.758 Y124.458 E36.25648
G1 X98.169 Y123.851 E36.34782
G1 X97.795 Y123.433 E36.4084
G1 X97.218 Y122.738 E36.50595
G1 X96.911 Y122.337 E36.5605
G1 X96.409 Y121.627 E36.65441
G1 X96.107 Y121.159 E36.71456
G1 X95.656 Y120.398 E36.8101
G1 X95.199 Y119.545 E36.91461
G1 X95.086 Y119.311 E36.94268
G1 X94.558 Y118.093 E37.08605
G1 X94.195 Y117.08 E37.20226
G1 X93.933 Y116.181 E37.30339
G1 X93.752 Y115.446 E37.38515
G1 X93.589 Y114.63 E37.47502
G1 X93.475 Y113.879 E37.55705
G1 X93.385 Y113.068 E37.64518
G1 X93.334 Y112.268 E37.73175
G1 X93.318 Y111.472 E37.81774
G10
;MESH:66stamp.STL
G0 F4320 X95.817 Y111.487
G0 X96.943 Y111.491
G11
G0 X96.715 Y111.429
;TYPE:WALL-OUTER
G1 F1800 X96.725 Y112.087 E37.88881
G1 X96.764 Y112.712 E37.95644
G1 X96.832 Y113.363 E38.02713
G1 X96.928 Y114 E38.09671
G1 X97.037 Y114.571 E38.15949
G1 X97.21 Y115.298 E38.2402
G1 X97.381 Y115.895 E38.30726
G1 X97.577 Y116.48 E38.3739
G1 X97.815 Y117.1 E38.44562
G1 X98.069 Y117.684 E38.5144
G1 X98.355 Y118.269 E38.58473
G1 X98.647 Y118.808 E38.65093
G1 X98.965 Y119.344 E38.71824
G1 X99.272 Y119.812 E38.77869
G1 X99.624 Y120.309 E38.84446
G1 X99.947 Y120.727 E38.90152
G1 X100.35 Y121.212 E38.96962
G1 X100.711 Y121.611 E39.02773
G1 X101.142 Y122.054 E39.09448
G1 X101.556 Y122.442 E39.15576
G1 X102 Y122.831 E39.21951
G1 X102.389 Y123.146 E39.27357
G1 X102.953 Y123.566 E39.34952
G1 X103.511 Y123.942 E39.42219
G1 X104.027 Y124.257 E39.48748
G1 X104.599 Y124.576 E39.55821
G1 X105.192 Y124.872 E39.62979
G1 X105.784 Y125.135 E39.69975
G1 X106.34 Y125.355 E39.76433
G1 X107.035 Y125.595 E39.84374
G1 X107.559 Y125.749 E39.90272
G1 X108.244 Y125.921 E39.979
G1 X108.861 Y126.048 E40.04703
G1 X109.502 Y126.149 E40.11712
G1 X110.149 Y126.224 E40.18746
G1 X110.792 Y126.269 E40.25707
G1 X111.428 Y126.286 E40.32579
G1 X112.083 Y126.275 E40.39654
G1 X112.712 Y126.236 E40.4646
G1 X113.367 Y126.167 E40.53573
G1 X113.996 Y126.072 E40.60443
G1 X114.611 Y125.954 E40.67206
G1 X115.245 Y125.804 E40.74243
G1 X115.9 Y125.618 E40.81596
G1 X116.467 Y125.428 E40.88055
G1 X117.124 Y125.176 E40.95654
G1 X117.659 Y124.942 E41.01961
G1 X118.275 Y124.642 E41.09361
G1 X118.801 Y124.358 E41.15817
G1 X119.349 Y124.033 E41.22698
G1 X119.825 Y123.719 E41.28856
G1 X120.306 Y123.378 E41.35224
G1 X120.725 Y123.054 E41.40944
G1 X121.209 Y122.653 E41.47732
G1 X121.594 Y122.305 E41.53337
G1 X122.052 Y121.859 E41.60241
G1 X122.396 Y121.496 E41.65643
G1 X122.834 Y120.997 E41.72813
G1 X123.184 Y120.561 E41.78852
G1 X123.565 Y120.047 E41.85762
G1 X123.941 Y119.491 E41.93011
G1 X124.266 Y118.958 E41.99753
G1 X124.57 Y118.412 E42.06502
G1 X124.877 Y117.799 E42.13906
G1 X125.132 Y117.225 E42.2069
G1 X125.358 Y116.655 E42.27312
G1 X125.59 Y115.982 E42.35
G1 X125.757 Y115.415 E42.41384
G1 X125.919 Y114.765 E42.48618
G1 X126.048 Y114.139 E42.55521
G1 X126.15 Y113.493 E42.62585
G1 X126.224 Y112.85 E42.69575
G1 X126.269 Y112.205 E42.76558
G1 X126.286 Y111.571 E42.83407
G1 X126.286 Y111.569 E42.83429
G1 X126.275 Y110.917 E42.90472
G1 X126.236 Y110.281 E42.97353
G1 X126.169 Y109.642 E43.04292
G1 X126.07 Y108.988 E43.11436
G1 X125.956 Y108.397 E43.17936
G1 X125.8 Y107.742 E43.25208
G1 X125.621 Y107.113 E43.32271
G1 X125.41 Y106.485 E43.39426
G1 X125.192 Y105.919 E43.45977
G1 X124.929 Y105.312 E43.53121
G1 X124.644 Y104.729 E43.6013
G1 X124.358 Y104.199 E43.66634
G1 X124.025 Y103.638 E43.7368
G1 X123.734 Y103.196 E43.79395
G1 X123.376 Y102.691 E43.8608
G1 X123.05 Y102.268 E43.91848
G1 X122.647 Y101.784 E43.9865
G1 X122.289 Y101.389 E44.04408
G1 X121.856 Y100.944 E44.11113
G1 X121.446 Y100.558 E44.17195
G1 X121.002 Y100.17 E44.23563
G1 X120.609 Y99.854 E44.29009
G1 X120.039 Y99.429 E44.36688
G1 X119.495 Y99.063 E44.43769
G1 X118.955 Y98.732 E44.5061
